;FLAVOR:Marlin
;TIME:13758
;Filament used: 11.277m
;Layer height: 0.2
;MINX:63.496
;MINY:69.28
;MINZ:0.2
;MAXX:156.497
;MAXY:150.72
;MAXZ:13.2
;Generated with Cura_SteamEngine 4.2.1
M140 S60
M105
M190 S60
M104 S200
M105
M109 S200
M82 ;absolute extrusion mode
M201 X500.00 Y500.00 Z100.00 E5000.00 ;Setup machine max acceleration
M203 X500.00 Y500.00 Z10.00 E50.00 ;Setup machine max feedrate
M204 P500.00 R1000.00 T500.00 ;Setup Print/Retract/Travel acceleration
M205 X8.00 Y8.00 Z0.40 E5.00 ;Setup Jerk
M220 S100 ;Reset Feedrate
M221 S100 ;Reset Flowrate

G28 ;Home

G92 E0 ;Reset Extruder
G1 Z2.0 F3000 ;Move Z Axis up
G1 X10.1 Y20 Z0.28 F5000.0 ;Move to start position
G1 X10.1 Y200.0 Z0.28 F1500.0 E15 ;Draw the first line
G1 X10.4 Y200.0 Z0.28 F5000.0 ;Move to side a little
G1 X10.4 Y20 Z0.28 F1500.0 E30 ;Draw the second line
G92 E0 ;Reset Extruder
G1 Z2.0 F3000 ;Move Z Axis up

G92 E0
G92 E0
G1 F2700 E-5
;LAYER_COUNT:65
;LAYER:0
M107
G0 F6000 X85.858 Y70.483 Z0.2
;TYPE:SKIRT
G1 F2700 E0
G1 F1200 X86.21 Y70.118 E0.01855
G1 X86.615 Y69.812 E0.03712
G1 X87.063 Y69.574 E0.05568
G1 X87.542 Y69.41 E0.07421
G1 X88.073 Y69.319 E0.09392
G1 X88.392 Y69.292 E0.10563
G1 X88.664 Y69.281 E0.11559
G1 X130.944 Y69.28 E1.66245
G1 X130.99 Y69.28 E1.66413
G1 X131.688 Y69.29 E1.68967
G1 X132.193 Y69.338 E1.70823
G1 X132.684 Y69.463 E1.72677
G1 X133.15 Y69.665 E1.74535
G1 X133.578 Y69.937 E1.76391
G1 X133.958 Y70.273 E1.78246
G1 X134.399 Y70.846 E1.80892
G1 X134.734 Y71.401 E1.83264
G1 X134.77 Y71.463 E1.83526
G1 X134.98 Y71.828 E1.85067
G1 X155.295 Y107.013 E3.33711
G1 X155.305 Y107.031 E3.33786
G1 X156.038 Y108.32 E3.39211
G1 X156.186 Y108.615 E3.40419
G1 X156.23 Y108.715 E3.40819
G1 X156.397 Y109.194 E3.42675
G1 X156.487 Y109.693 E3.4453
G1 X156.497 Y110.2 E3.46385
G1 X156.428 Y110.703 E3.48242
G1 X156.281 Y111.188 E3.50097
G1 X156.122 Y111.531 E3.5148
G1 X155.992 Y111.774 E3.52488
G1 X155.942 Y111.865 E3.52868
G1 X134.807 Y148.474 E5.07524
G1 X134.786 Y148.509 E5.07674
G1 X134.414 Y149.135 E5.10338
G1 X134.122 Y149.549 E5.12191
G1 X133.768 Y149.912 E5.14046
G1 X133.361 Y150.215 E5.15903
G1 X132.912 Y150.451 E5.17758
G1 X132.431 Y150.613 E5.19615
G1 X131.695 Y150.71 E5.22331
G1 X131.101 Y150.719 E5.24505
G1 X131.057 Y150.719 E5.24666
G1 X130.434 Y150.72 E5.26945
G1 X89.905 Y150.72 E6.75225
G1 X88.43 Y150.71 E6.80622
G1 X88.355 Y150.709 E6.80896
G1 X88.255 Y150.706 E6.81262
G1 X87.751 Y150.65 E6.83118
G1 X87.262 Y150.517 E6.84972
G1 X86.8 Y150.308 E6.86827
G1 X86.376 Y150.03 E6.88682
G1 X86.001 Y149.688 E6.90539
G1 X85.61 Y149.176 E6.92896
G1 X85.44 Y148.9 E6.94082
G1 X85.392 Y148.819 E6.94426
G1 X85.018 Y148.17 E6.97166
G1 X64.233 Y112.17 E8.49253
G1 X64.21 Y112.129 E8.49425
G1 X63.917 Y111.604 E8.51625
G1 X63.79 Y111.35 E8.52664
G1 X63.773 Y111.312 E8.52816
G1 X63.603 Y110.834 E8.54672
G1 X63.51 Y110.336 E8.56526
G1 X63.496 Y109.829 E8.58381
G1 X63.563 Y109.326 E8.60238
G1 X63.707 Y108.84 E8.62092
G1 X63.896 Y108.436 E8.63724
G1 X64.125 Y108.023 E8.65452
G1 X64.16 Y107.961 E8.65712
G1 X64.54 Y107.31 E8.6847
G1 X84.75 Y72.292 E10.16393
G1 X84.762 Y72.273 E10.16475
G1 X85.568 Y70.899 E10.22303
G1 X85.858 Y70.483 E10.24159
G1 F2700 E5.24159
G1 F600 Z0.4
G0 F6000 X87.99 Y73.562 Z0.4
G1 F600 Z0.2
G1 F2700 E10.24159
G1 F1200 X92.909 Y76.403 E10.44941
G1 X72.358 Y111.997 E11.95314
G1 X67.444 Y109.159 E12.16075
G1 X87.99 Y73.562 E13.66447
G0 F6000 X88.151 Y74.163
G1 F1200 X92.308 Y76.564 E13.84011
G1 X72.197 Y111.396 E15.31163
G1 X68.045 Y108.998 E15.48706
G1 X88.151 Y74.163 E16.95859
G0 F6000 X88.312 Y74.764
G1 F1200 X91.707 Y76.725 E17.10203
G1 X72.036 Y110.795 E18.54136
G1 X68.646 Y108.837 E18.68459
G1 X88.312 Y74.764 E20.12393
G0 F6000 X88.473 Y75.365
G1 F1200 X91.106 Y76.886 E20.23518
G1 X71.875 Y110.194 E21.64232
G1 X69.247 Y108.676 E21.75336
G1 X88.473 Y75.365 E23.1605
G0 F6000 X88.634 Y75.966
G1 F1200 X90.505 Y77.047 E23.23956
G1 X71.714 Y109.593 E24.61451
G1 X69.848 Y108.515 E24.69335
G1 X88.634 Y75.966 E26.06831
G0 F6000 X88.795 Y76.567
G1 F1200 X89.904 Y77.208 E26.11517
G1 X71.553 Y108.992 E27.45793
G1 X70.449 Y108.354 E27.50458
G1 X88.795 Y76.567 E28.84734
G0 F6000 X88.956 Y77.168
G1 F1200 X89.303 Y77.369 E28.86201
G1 X71.392 Y108.391 E30.17258
G1 X71.05 Y108.193 E30.18704
G1 X88.956 Y77.168 E31.4976
G1 F2700 E26.4976
G1 F600 Z0.4
G0 F6000 X108.315 Y89.754 Z0.4
G1 F600 Z0.2
G1 F2700 E31.4976
G1 F1200 X108.551 Y89.487 E31.51064
G1 X108.83 Y89.26 E31.5238
G1 X109.138 Y89.089 E31.53669
G1 X109.464 Y88.973 E31.54935
G1 X109.824 Y88.912 E31.56271
G1 X110.176 Y88.912 E31.57559
G1 X110.536 Y88.973 E31.58895
G1 X110.862 Y89.089 E31.6016
G1 X111.17 Y89.26 E31.61449
G1 X111.449 Y89.487 E31.62765
G1 X111.685 Y89.754 E31.64069
G1 X111.873 Y90.061 E31.65386
G1 X112.005 Y90.388 E31.66676
G1 X112.079 Y90.729 E31.67953
G1 X112.094 Y91.091 E31.69278
G1 X112.048 Y91.445 E31.70584
G1 X111.948 Y91.773 E31.71839
G1 X111.784 Y92.1 E31.73177
G1 X111.57 Y92.388 E31.7449
G1 X111.315 Y92.634 E31.75786
G1 X111.031 Y92.826 E31.77041
G1 X110.693 Y92.978 E31.78397
G1 X110.353 Y93.067 E31.79682
G1 X110 Y93.096 E31.80978
G1 X109.647 Y93.067 E31.82274
G1 X109.307 Y92.978 E31.8356
G1 X108.969 Y92.826 E31.84916
G1 X108.685 Y92.634 E31.8617
G1 X108.43 Y92.388 E31.87466
G1 X108.216 Y92.1 E31.88779
G1 X108.052 Y91.773 E31.90118
G1 X107.952 Y91.445 E31.91372
G1 X107.906 Y91.091 E31.92678
G1 X107.921 Y90.729 E31.94004
G1 X107.995 Y90.388 E31.9528
G1 X108.127 Y90.061 E31.9657
G1 X108.315 Y89.754 E31.97888
G0 F6000 X108.67 Y90.017
G1 F1200 X108.856 Y89.806 E31.98917
G1 X109.076 Y89.627 E31.99954
G1 X109.321 Y89.491 E32.00979
G1 X109.576 Y89.4 E32.0197
G1 X109.862 Y89.352 E32.03031
G1 X110.138 Y89.352 E32.04041
G1 X110.424 Y89.4 E32.05102
G1 X110.679 Y89.491 E32.06092
G1 X110.924 Y89.627 E32.07118
G1 X111.144 Y89.806 E32.08155
G1 X111.33 Y90.017 E32.09184
G1 X111.478 Y90.259 E32.10222
G1 X111.583 Y90.518 E32.11245
G1 X111.641 Y90.789 E32.12259
G1 X111.654 Y91.07 E32.13288
G1 X111.617 Y91.348 E32.14314
G1 X111.537 Y91.613 E32.15327
G1 X111.408 Y91.869 E32.16375
G1 X111.24 Y92.096 E32.17409
G1 X111.038 Y92.29 E32.18433
G1 X110.815 Y92.44 E32.19417
G1 X110.548 Y92.561 E32.20489
G1 X110.28 Y92.631 E32.21502
G1 X110 Y92.654 E32.2253
G1 X109.72 Y92.631 E32.23558
G1 X109.452 Y92.561 E32.24572
G1 X109.185 Y92.44 E32.25644
G1 X108.962 Y92.29 E32.26627
G1 X108.76 Y92.096 E32.27652
G1 X108.592 Y91.869 E32.28685
G1 X108.463 Y91.613 E32.29734
G1 X108.383 Y91.348 E32.30747
G1 X108.346 Y91.07 E32.31773
G1 X108.359 Y90.789 E32.32802
G1 X108.417 Y90.518 E32.33816
G1 X108.522 Y90.259 E32.34838
G1 X108.67 Y90.017 E32.35876
G0 F6000 X109.025 Y90.28
G1 F1200 X109.161 Y90.125 E32.36631
G1 X109.326 Y89.992 E32.37406
G1 X109.504 Y89.892 E32.38153
G1 X109.682 Y89.829 E32.38844
G1 X109.901 Y89.792 E32.39656
G1 X110.099 Y89.792 E32.40381
G1 X110.318 Y89.829 E32.41193
G1 X110.496 Y89.892 E32.41884
G1 X110.674 Y89.992 E32.42631
G1 X110.839 Y90.125 E32.43407
G1 X110.975 Y90.28 E32.44161
G1 X111.084 Y90.457 E32.44922
G1 X111.161 Y90.649 E32.45678
G1 X111.203 Y90.842 E32.46401
G1 X111.212 Y91.049 E32.47159
G1 X111.185 Y91.259 E32.47934
G1 X111.126 Y91.451 E32.48669
G1 X111.034 Y91.635 E32.49421
G1 X110.909 Y91.802 E32.50184
G1 X110.758 Y91.948 E32.50953
G1 X110.599 Y92.055 E32.51654
G1 X110.402 Y92.144 E32.52445
G1 X110.202 Y92.196 E32.53201
G1 X110 Y92.213 E32.53943
G1 X109.798 Y92.196 E32.54684
G1 X109.598 Y92.144 E32.5544
G1 X109.401 Y92.055 E32.56231
G1 X109.242 Y91.948 E32.56932
G1 X109.091 Y91.802 E32.57701
G1 X108.966 Y91.635 E32.58464
G1 X108.874 Y91.451 E32.59217
G1 X108.815 Y91.259 E32.59952
G1 X108.788 Y91.049 E32.60726
G1 X108.797 Y90.842 E32.61484
G1 X108.839 Y90.649 E32.62207
G1 X108.916 Y90.457 E32.62964
G1 X109.025 Y90.28 E32.63724
G0 F6000 X109.38 Y90.542
G1 F1200 X109.469 Y90.441 E32.64217
G1 X109.572 Y90.358 E32.64701
G1 X109.681 Y90.297 E32.65158
G1 X109.801 Y90.254 E32.65624
G1 X109.933 Y90.232 E32.66114
G1 X110.067 Y90.232 E32.66604
G1 X110.199 Y90.254 E32.67093
G1 X110.319 Y90.297 E32.6756
G1 X110.428 Y90.358 E32.68017
G1 X110.531 Y90.441 E32.68501
G1 X110.62 Y90.542 E32.68993
G1 X110.689 Y90.654 E32.69475
G1 X110.739 Y90.78 E32.69971
G1 X110.764 Y90.896 E32.70405
G1 X110.77 Y91.034 E32.7091
G1 X110.754 Y91.162 E32.71382
G1 X110.716 Y91.286 E32.71857
G1 X110.657 Y91.404 E32.72339
G1 X110.573 Y91.517 E32.72854
G1 X110.485 Y91.601 E32.73299
G1 X110.383 Y91.67 E32.7375
G1 X110.25 Y91.73 E32.74284
G1 X110.137 Y91.759 E32.74711
G1 X110 Y91.771 E32.75214
G1 X109.863 Y91.759 E32.75717
G1 X109.75 Y91.73 E32.76144
G1 X109.617 Y91.67 E32.76678
G1 X109.515 Y91.601 E32.77128
G1 X109.427 Y91.517 E32.77573
G1 X109.343 Y91.404 E32.78088
G1 X109.284 Y91.286 E32.78571
G1 X109.246 Y91.162 E32.79045
G1 X109.23 Y91.034 E32.79517
G1 X109.236 Y90.896 E32.80023
G1 X109.261 Y90.78 E32.80457
G1 X109.311 Y90.654 E32.80953
G1 X109.38 Y90.542 E32.81434
G0 F6000 X109.735 Y90.805
G1 F1200 X109.775 Y90.76 E32.81654
G1 X109.818 Y90.725 E32.81857
G1 X109.864 Y90.699 E32.82051
G1 X109.913 Y90.682 E32.8224
G1 X109.971 Y90.672 E32.82456
G1 X110.029 Y90.672 E32.82668
G1 X110.087 Y90.682 E32.82883
G1 X110.136 Y90.699 E32.83073
G1 X110.182 Y90.725 E32.83266
G1 X110.225 Y90.76 E32.83469
G1 X110.265 Y90.805 E32.83689
G1 X110.295 Y90.854 E32.839
G1 X110.317 Y90.908 E32.84113
G1 X110.327 Y90.955 E32.84289
G1 X110.33 Y91.014 E32.84505
G1 X110.323 Y91.066 E32.84697
G1 X110.305 Y91.124 E32.84919
G1 X110.281 Y91.172 E32.85115
G1 X110.245 Y91.221 E32.85338
G1 X110.205 Y91.259 E32.8554
G1 X110.167 Y91.285 E32.85708
G1 X110.105 Y91.313 E32.85957
G1 X110.059 Y91.325 E32.86131
G1 X110 Y91.33 E32.86348
G1 X109.941 Y91.325 E32.86564
G1 X109.895 Y91.313 E32.86738
G1 X109.833 Y91.285 E32.86987
G1 X109.795 Y91.259 E32.87156
G1 X109.755 Y91.221 E32.87357
G1 X109.719 Y91.172 E32.8758
G1 X109.695 Y91.124 E32.87776
G1 X109.677 Y91.066 E32.87998
G1 X109.67 Y91.014 E32.8819
G1 X109.673 Y90.955 E32.88406
G1 X109.683 Y90.908 E32.88582
G1 X109.705 Y90.854 E32.88796
G1 X109.735 Y90.805 E32.89006
G1 F2700 E27.89006
G1 F600 Z0.4
G0 F6000 X127.091 Y76.403 Z0.4
G1 F600 Z0.2
G1 F2700 E32.89006
G1 F1200 X132.01 Y73.563 E33.09787
G1 X152.56 Y109.157 E34.60157
G1 X147.642 Y111.997 E34.80935
G1 X127.091 Y76.403 E36.31307
G0 F6000 X127.692 Y76.564
G1 F1200 X131.849 Y74.164 E36.48868
G1 X151.959 Y108.996 E37.96019
G1 X147.803 Y111.396 E38.13578
G1 X127.692 Y76.564 E39.6073
G0 F6000 X128.293 Y76.725
G1 F1200 X131.688 Y74.765 E39.75073
G1 X151.358 Y108.835 E41.19004
G1 X147.964 Y110.795 E41.33344
G1 X128.293 Y76.725 E42.77277
G0 F6000 X128.894 Y76.886
G1 F1200 X131.527 Y75.366 E42.884
G1 X150.757 Y108.674 E44.29113
G1 X148.125 Y110.194 E44.40232
G1 X128.894 Y76.886 E45.80947
G0 F6000 X129.495 Y77.047
G1 F1200 X131.366 Y75.967 E45.88851
G1 X150.156 Y108.513 E47.26344
G1 X148.286 Y109.593 E47.34244
G1 X129.495 Y77.047 E48.71739
G0 F6000 X130.096 Y77.208
G1 F1200 X131.205 Y76.568 E48.76424
G1 X149.555 Y108.352 E50.10698
G1 X148.447 Y108.992 E50.15379
G1 X130.096 Y77.208 E51.49655
G0 F6000 X130.697 Y77.369
G1 F1200 X131.044 Y77.169 E51.5112
G1 X148.954 Y108.191 E52.82175
G1 X148.608 Y108.391 E52.83637
G1 X130.697 Y77.369 E54.14694
G1 F2700 E49.14694
G1 F600 Z0.4
G0 F6000 X127.551 Y108.487 Z0.4
G1 F600 Z0.2
G1 F2700 E54.14694
G1 F1200 X127.83 Y108.26 E54.1601
G1 X128.138 Y108.089 E54.17298
G1 X128.464 Y107.973 E54.18564
G1 X128.824 Y107.912 E54.199
G1 X129.176 Y107.912 E54.21188
G1 X129.536 Y107.973 E54.22524
G1 X129.862 Y108.089 E54.2379
G1 X130.17 Y108.26 E54.25079
G1 X130.449 Y108.487 E54.26395
G1 X130.685 Y108.754 E54.27698
G1 X130.873 Y109.061 E54.29016
G1 X131.005 Y109.388 E54.30306
G1 X131.079 Y109.729 E54.31582
G1 X131.094 Y110.091 E54.32908
G1 X131.048 Y110.445 E54.34214
G1 X130.948 Y110.773 E54.35468
G1 X130.784 Y111.1 E54.36807
G1 X130.57 Y111.388 E54.3812
G1 X130.315 Y111.634 E54.39416
G1 X130.031 Y111.826 E54.4067
G1 X129.693 Y111.978 E54.42026
G1 X129.353 Y112.067 E54.43312
G1 X129 Y112.096 E54.44608
G1 X128.647 Y112.067 E54.45904
G1 X128.307 Y111.978 E54.47189
G1 X127.969 Y111.826 E54.48545
G1 X127.685 Y111.634 E54.498
G1 X127.43 Y111.388 E54.51096
G1 X127.216 Y111.1 E54.52409
G1 X127.052 Y110.773 E54.53747
G1 X126.952 Y110.445 E54.55002
G1 X126.906 Y110.091 E54.56308
G1 X126.921 Y109.729 E54.57633
G1 X126.995 Y109.388 E54.5891
G1 X127.127 Y109.061 E54.602
G1 X127.315 Y108.754 E54.61517
G1 X127.551 Y108.487 E54.62821
G0 F6000 X127.856 Y108.806
G1 F1200 X128.076 Y108.627 E54.63858
G1 X128.321 Y108.491 E54.64884
G1 X128.576 Y108.4 E54.65874
G1 X128.862 Y108.352 E54.66935
G1 X129.138 Y108.352 E54.67945
G1 X129.424 Y108.4 E54.69006
G1 X129.679 Y108.491 E54.69996
G1 X129.924 Y108.627 E54.71022
G1 X130.144 Y108.806 E54.72059
G1 X130.33 Y109.017 E54.73088
G1 X130.478 Y109.259 E54.74126
G1 X130.583 Y109.518 E54.75149
G1 X130.641 Y109.789 E54.76163
G1 X130.654 Y110.07 E54.77192
G1 X130.617 Y110.348 E54.78218
G1 X130.537 Y110.613 E54.79231
G1 X130.408 Y110.869 E54.80279
G1 X130.24 Y111.096 E54.81313
G1 X130.038 Y111.29 E54.82337
G1 X129.815 Y111.44 E54.83321
G1 X129.548 Y111.561 E54.84393
G1 X129.28 Y111.631 E54.85407
G1 X129 Y111.654 E54.86434
G1 X128.72 Y111.631 E54.87462
G1 X128.452 Y111.561 E54.88476
G1 X128.185 Y111.44 E54.89548
G1 X127.962 Y111.29 E54.90531
G1 X127.76 Y111.096 E54.91556
G1 X127.592 Y110.869 E54.92589
G1 X127.463 Y110.613 E54.93638
G1 X127.383 Y110.348 E54.94651
G1 X127.346 Y110.07 E54.95677
G1 X127.359 Y109.789 E54.96706
G1 X127.417 Y109.518 E54.9772
G1 X127.522 Y109.259 E54.98742
G1 X127.67 Y109.017 E54.9978
G1 X127.856 Y108.806 E55.00809
G0 F6000 X128.161 Y109.125
G1 F1200 X128.326 Y108.992 E55.01585
G1 X128.504 Y108.892 E55.02332
G1 X128.682 Y108.829 E55.03023
G1 X128.901 Y108.792 E55.03835
G1 X129.099 Y108.792 E55.0456
G1 X129.318 Y108.829 E55.05372
G1 X129.496 Y108.892 E55.06063
G1 X129.674 Y108.992 E55.0681
G1 X129.839 Y109.125 E55.07585
G1 X129.975 Y109.28 E55.0834
G1 X130.084 Y109.457 E55.091
G1 X130.161 Y109.649 E55.09857
G1 X130.203 Y109.842 E55.1058
G1 X130.212 Y110.049 E55.11338
G1 X130.185 Y110.259 E55.12112
G1 X130.126 Y110.451 E55.12847
G1 X130.034 Y110.635 E55.136
G1 X129.909 Y110.802 E55.14363
G1 X129.758 Y110.948 E55.15132
G1 X129.599 Y111.055 E55.15833
G1 X129.402 Y111.144 E55.16624
G1 X129.202 Y111.196 E55.1738
G1 X129 Y111.213 E55.18121
G1 X128.798 Y111.196 E55.18863
G1 X128.598 Y111.144 E55.19619
G1 X128.401 Y111.055 E55.2041
G1 X128.242 Y110.948 E55.21111
G1 X128.091 Y110.802 E55.2188
G1 X127.966 Y110.635 E55.22643
G1 X127.874 Y110.451 E55.23395
G1 X127.815 Y110.259 E55.2413
G1 X127.788 Y110.049 E55.24905
G1 X127.797 Y109.842 E55.25663
G1 X127.839 Y109.649 E55.26386
G1 X127.916 Y109.457 E55.27142
G1 X128.025 Y109.28 E55.27903
G1 X128.161 Y109.125 E55.28657
G0 F6000 X128.469 Y109.441
G1 F1200 X128.572 Y109.358 E55.29141
G1 X128.681 Y109.297 E55.29598
G1 X128.801 Y109.254 E55.30065
G1 X128.933 Y109.232 E55.30554
G1 X129.067 Y109.232 E55.31045
G1 X129.199 Y109.254 E55.31534
G1 X129.319 Y109.297 E55.32001
G1 X129.428 Y109.358 E55.32458
G1 X129.531 Y109.441 E55.32941
G1 X129.62 Y109.542 E55.33434
G1 X129.689 Y109.654 E55.33915
G1 X129.739 Y109.78 E55.34411
G1 X129.764 Y109.896 E55.34845
G1 X129.77 Y110.034 E55.35351
G1 X129.754 Y110.162 E55.35823
G1 X129.716 Y110.286 E55.36297
G1 X129.657 Y110.404 E55.3678
G1 X129.573 Y110.517 E55.37295
G1 X129.485 Y110.601 E55.3774
G1 X129.383 Y110.67 E55.38191
G1 X129.25 Y110.73 E55.38724
G1 X129.137 Y110.759 E55.39151
G1 X129 Y110.771 E55.39654
G1 X128.863 Y110.759 E55.40158
G1 X128.75 Y110.73 E55.40584
G1 X128.617 Y110.67 E55.41118
G1 X128.515 Y110.601 E55.41569
G1 X128.427 Y110.517 E55.42014
G1 X128.343 Y110.404 E55.42529
G1 X128.284 Y110.286 E55.43012
G1 X128.246 Y110.162 E55.43486
G1 X128.23 Y110.034 E55.43958
G1 X128.236 Y109.896 E55.44463
G1 X128.261 Y109.78 E55.44898
G1 X128.311 Y109.654 E55.45394
G1 X128.38 Y109.542 E55.45875
G1 X128.469 Y109.441 E55.46367
G0 F6000 X128.775 Y109.76
G1 F1200 X128.818 Y109.725 E55.4657
G1 X128.864 Y109.699 E55.46764
G1 X128.913 Y109.682 E55.46953
G1 X128.971 Y109.672 E55.47169
G1 X129.029 Y109.672 E55.47381
