;FLAVOR:Marlin
;TIME:8455
;Filament used: 6.63716m
;Layer height: 0.2
;MINX:51.438
;MINY:85.78
;MINZ:0.2
;MAXX:168.836
;MAXY:134.22
;MAXZ:13.2
;Generated with Cura_SteamEngine 4.2.1
M140 S60
M105
M190 S60
M104 S200
M105
M109 S200
M82 ;absolute extrusion mode
M201 X500.00 Y500.00 Z100.00 E5000.00 ;Setup machine max acceleration
M203 X500.00 Y500.00 Z10.00 E50.00 ;Setup machine max feedrate
M204 P500.00 R1000.00 T500.00 ;Setup Print/Retract/Travel acceleration
M205 X8.00 Y8.00 Z0.40 E5.00 ;Setup Jerk
M220 S100 ;Reset Feedrate
M221 S100 ;Reset Flowrate

G28 ;Home

G92 E0 ;Reset Extruder
G1 Z2.0 F3000 ;Move Z Axis up
G1 X10.1 Y20 Z0.28 F5000.0 ;Move to start position
G1 X10.1 Y200.0 Z0.28 F1500.0 E15 ;Draw the first line
G1 X10.4 Y200.0 Z0.28 F5000.0 ;Move to side a little
G1 X10.4 Y20 Z0.28 F1500.0 E30 ;Draw the second line
G92 E0 ;Reset Extruder
G1 Z2.0 F3000 ;Move Z Axis up

G92 E0
G92 E0
G1 F2700 E-5
;LAYER_COUNT:65
;LAYER:0
M107
G0 F6000 X53.048 Y86.293 Z0.2
;TYPE:SKIRT
G1 F2700 E0
G1 F1200 X53.497 Y86.059 E0.01852
G1 X53.978 Y85.897 E0.03709
G1 X54.693 Y85.802 E0.06348
G1 X55.716 Y85.781 E0.10092
G1 X55.782 Y85.78 E0.10333
G1 X75.555 Y85.78 E0.82675
G1 X76.253 Y85.79 E0.85229
G1 X76.43 Y85.798 E0.85877
G1 X76.733 Y85.819 E0.86989
G1 X76.839 Y85.828 E0.87378
G1 X78.233 Y85.971 E0.92505
G1 X78.239 Y85.971 E0.92527
G1 X110.313 Y89.328 E2.10514
G1 X113.037 Y89.575 E2.20521
G1 X115.785 Y89.745 E2.30594
G1 X118.499 Y89.836 E2.40529
G1 X121.251 Y89.851 E2.50598
G1 X123.968 Y89.788 E2.60541
G1 X126.715 Y89.647 E2.70604
G1 X129.463 Y89.428 E2.8069
G1 X132.159 Y89.136 E2.90611
G1 X134.855 Y88.767 E3.00567
G1 X137.575 Y88.316 E3.10654
G1 X140.268 Y87.791 E3.20692
G1 X142.917 Y87.196 E3.30626
G1 X145.599 Y86.514 E3.4075
G1 X147.335 Y86.02 E3.47354
G1 X147.385 Y86.006 E3.47544
G1 X147.763 Y85.905 E3.48975
G1 X148.506 Y85.797 E3.51722
G1 X149.09 Y85.781 E3.53859
G1 X149.178 Y85.78 E3.54181
G1 X151.955 Y85.78 E3.64341
G1 X152.653 Y85.79 E3.66895
G1 X153.158 Y85.838 E3.68751
G1 X153.649 Y85.963 E3.70605
G1 X154.115 Y86.165 E3.72463
G1 X154.543 Y86.437 E3.74319
G1 X154.766 Y86.621 E3.75376
G1 X154.922 Y86.762 E3.76146
G1 X155.012 Y86.846 E3.76596
G1 X155.176 Y87.006 E3.77434
G1 X167.395 Y99.225 E4.40656
G1 X167.426 Y99.257 E4.40819
G1 X167.894 Y99.738 E4.43275
G1 X168.218 Y100.128 E4.4513
G1 X168.476 Y100.564 E4.46983
G1 X168.663 Y101.035 E4.48837
G1 X168.774 Y101.53 E4.50693
G1 X168.804 Y101.874 E4.51956
G1 X168.828 Y102.583 E4.54552
G1 X168.83 Y102.664 E4.54848
G1 X168.836 Y103.355 E4.57377
G1 X168.836 Y117.339 E5.08539
G1 X168.826 Y118.037 E5.11093
G1 X168.778 Y118.542 E5.12948
G1 X168.653 Y119.033 E5.14802
G1 X168.451 Y119.499 E5.1666
G1 X168.179 Y119.927 E5.18516
G1 X167.995 Y120.15 E5.19573
G1 X167.854 Y120.306 E5.20343
G1 X167.767 Y120.399 E5.20809
G1 X167.586 Y120.584 E5.21756
G1 X155.382 Y132.788 E5.849
G1 X155.351 Y132.818 E5.85058
G1 X154.86 Y133.296 E5.87565
G1 X154.47 Y133.62 E5.8942
G1 X154.034 Y133.879 E5.91275
G1 X153.562 Y134.066 E5.93133
G1 X153.068 Y134.177 E5.94985
G1 X152.677 Y134.208 E5.9642
G1 X152.117 Y134.219 E5.98469
G1 X152.054 Y134.22 E5.987
G1 X149.277 Y134.22 E6.0886
G1 X148.579 Y134.21 E6.11414
G1 X148.074 Y134.162 E6.1327
G1 X147.778 Y134.097 E6.14378
G1 X146.729 Y133.811 E6.18356
G1 X146.676 Y133.796 E6.18558
G1 X146.054 Y133.615 E6.20928
G1 X143.418 Y132.929 E6.30893
G1 X140.756 Y132.314 E6.40889
G1 X138.068 Y131.778 E6.50917
G1 X135.369 Y131.315 E6.60936
G1 X132.642 Y130.926 E6.71014
G1 X129.945 Y130.62 E6.80945
G1 X127.236 Y130.39 E6.90891
G1 X124.487 Y130.234 E7.00965
G1 X121.737 Y130.156 E7.1103
G1 X119.022 Y130.156 E7.20963
G1 X116.27 Y130.234 E7.31036
G1 X113.554 Y130.388 E7.40989
G1 X110.247 Y130.678 E7.53134
G1 X77.326 Y134.124 E8.74238
G1 X77.279 Y134.129 E8.7441
G1 X76.534 Y134.196 E8.77147
G1 X76.362 Y134.207 E8.77778
G1 X76.112 Y134.216 E8.78693
G1 X76.026 Y134.218 E8.79008
G1 X75.812 Y134.22 E8.79791
G1 X55.417 Y134.22 E9.54408
G1 X54.729 Y134.21 E9.56925
G1 X54.224 Y134.162 E9.58781
G1 X53.733 Y134.036 E9.60636
G1 X53.268 Y133.835 E9.62489
G1 X52.84 Y133.563 E9.64345
G1 X52.46 Y133.227 E9.66201
G1 X52.137 Y132.835 E9.68059
G1 X51.835 Y132.302 E9.703
G1 X51.715 Y132.033 E9.71378
G1 X51.546 Y131.555 E9.73233
G1 X51.453 Y131.056 E9.7509
G1 X51.441 Y130.549 E9.76945
G1 X51.498 Y130.094 E9.78623
G1 X51.996 Y127.588 E9.87971
G1 X52.454 Y124.888 E9.9799
G1 X52.834 Y122.199 E10.07926
G1 X53.141 Y119.462 E10.18002
G1 X53.372 Y116.716 E10.28084
G1 X53.522 Y114.006 E10.38014
G1 X53.597 Y111.253 E10.4809
G1 X53.593 Y108.537 E10.58027
G1 X53.512 Y105.789 E10.68085
G1 X53.353 Y103.037 E10.78171
G1 X53.119 Y100.328 E10.88119
G1 X52.806 Y97.599 E10.98168
G1 X52.42 Y94.907 E11.08118
G1 X51.954 Y92.208 E11.18139
G1 X51.715 Y91.038 E11.22508
G1 X51.708 Y91.001 E11.22646
G1 X51.494 Y89.886 E11.26799
G1 X51.438 Y89.382 E11.28655
G1 X51.461 Y88.875 E11.30512
G1 X51.564 Y88.379 E11.32365
G1 X51.666 Y88.085 E11.33504
G1 X51.769 Y87.827 E11.3452
G1 X51.993 Y87.372 E11.36375
G1 X52.286 Y86.959 E11.38228
G1 X52.641 Y86.596 E11.40086
G1 X53.048 Y86.293 E11.41942
G1 F2700 E6.41942
G1 F600 Z0.4
G0 F6000 X54.903 Y89.22 Z0.4
G1 F600 Z0.2
G1 F2700 E11.41942
G1 F1200 X64.516 Y89.222 E11.77112
G1 X64.516 Y100.833 E12.19592
G1 X64.555 Y100.958 E12.20071
G1 X64.669 Y101.043 E12.20592
G1 X66.201 Y101.529 E12.26472
G1 X66.333 Y101.529 E12.26955
G1 X66.447 Y101.446 E12.27471
G1 X67.015 Y100.646 E12.3106
G1 X67.276 Y100.388 E12.32403
G1 X67.576 Y100.18 E12.33739
G1 X67.907 Y100.027 E12.35073
G1 X68.265 Y99.933 E12.36427
G1 X68.624 Y99.904 E12.37745
G1 X68.988 Y99.936 E12.39082
G1 X69.338 Y100.031 E12.40408
G1 X69.662 Y100.183 E12.41718
G1 X69.971 Y100.401 E12.43101
G1 X70.22 Y100.651 E12.44392
G1 X70.434 Y100.958 E12.45761
G1 X70.584 Y101.278 E12.47054
G1 X70.681 Y101.642 E12.48433
G1 X70.712 Y102 E12.49747
G1 X70.681 Y102.358 E12.51062
G1 X70.584 Y102.722 E12.5244
G1 X70.435 Y103.041 E12.53728
G1 X70.22 Y103.349 E12.55103
G1 X69.971 Y103.599 E12.56394
G1 X69.662 Y103.817 E12.57777
G1 X69.338 Y103.969 E12.59086
G1 X68.988 Y104.064 E12.60413
G1 X68.624 Y104.096 E12.6175
G1 X68.265 Y104.067 E12.63068
G1 X67.907 Y103.973 E12.64422
G1 X67.576 Y103.82 E12.65756
G1 X67.274 Y103.611 E12.671
G1 X67.016 Y103.354 E12.68432
G1 X66.447 Y102.554 E12.72024
G1 X66.343 Y102.474 E12.72504
G1 X66.201 Y102.471 E12.73024
G1 X64.669 Y102.957 E12.78904
G1 X64.562 Y103.032 E12.79382
G1 X64.516 Y103.167 E12.79904
G1 X64.516 Y116.833 E13.29902
G1 X64.555 Y116.958 E13.30381
G1 X64.669 Y117.043 E13.30902
G1 X66.201 Y117.529 E13.36782
G1 X66.333 Y117.529 E13.37265
G1 X66.447 Y117.446 E13.37781
G1 X67.015 Y116.646 E13.4137
G1 X67.276 Y116.388 E13.42713
G1 X67.576 Y116.18 E13.44049
G1 X67.907 Y116.027 E13.45383
G1 X68.265 Y115.933 E13.46737
G1 X68.624 Y115.904 E13.48055
G1 X68.988 Y115.936 E13.49392
G1 X69.338 Y116.031 E13.50718
G1 X69.662 Y116.183 E13.52028
G1 X69.971 Y116.401 E13.53411
G1 X70.22 Y116.651 E13.54702
G1 X70.434 Y116.958 E13.56071
G1 X70.584 Y117.278 E13.57364
G1 X70.681 Y117.642 E13.58743
G1 X70.712 Y118 E13.60057
G1 X70.681 Y118.358 E13.61372
G1 X70.584 Y118.722 E13.6275
G1 X70.435 Y119.041 E13.64038
G1 X70.22 Y119.349 E13.65413
G1 X69.971 Y119.599 E13.66703
G1 X69.662 Y119.817 E13.68087
G1 X69.338 Y119.969 E13.69396
G1 X68.988 Y120.064 E13.70723
G1 X68.624 Y120.096 E13.7206
G1 X68.265 Y120.067 E13.73378
G1 X67.907 Y119.973 E13.74732
G1 X67.576 Y119.82 E13.76066
G1 X67.278 Y119.613 E13.77394
G1 X67.015 Y119.351 E13.78752
G1 X66.447 Y118.553 E13.82335
G1 X66.343 Y118.473 E13.82815
G1 X66.201 Y118.47 E13.83335
G1 X64.669 Y118.96 E13.8922
G1 X64.562 Y119.036 E13.897
G1 X64.516 Y119.17 E13.90218
G1 X64.531 Y130.78 E14.32695
G1 X54.903 Y130.78 E14.6792
G1 X56.884 Y128.736 E14.78334
G1 X56.901 Y128.716 E14.7843
G1 X58.93 Y126.049 E14.9069
G1 X58.944 Y126.028 E14.90783
G1 X60.648 Y123.139 E15.03054
G1 X60.66 Y123.116 E15.03149
G1 X62.016 Y120.046 E15.15428
G1 X62.025 Y120.021 E15.15525
G1 X63.053 Y116.651 E15.28415
G1 X63.059 Y116.626 E15.2851
G1 X63.633 Y113.466 E15.4026
G1 X63.637 Y113.439 E15.4036
G1 X63.825 Y110.059 E15.52745
G1 X63.825 Y110.034 E15.52837
G1 X63.625 Y106.527 E15.65688
G1 X63.621 Y106.5 E15.65788
G1 X63.573 Y106.239 E15.66759
G1 X63.045 Y103.3 E15.77684
G1 X63.039 Y103.276 E15.77774
G1 X62.035 Y99.992 E15.90338
G1 X62.026 Y99.967 E15.90435
G1 X60.656 Y96.881 E16.02788
G1 X60.644 Y96.858 E16.02883
G1 X58.94 Y93.971 E16.15148
G1 X58.926 Y93.95 E16.15241
G1 X56.91 Y91.297 E16.27431
G1 X56.893 Y91.277 E16.27527
G1 X54.903 Y89.22 E16.37999
G0 F6000 X55.941 Y89.66
G1 F1200 X64.076 Y89.662 E16.67761
G1 X64.076 Y100.833 E17.08632
G1 X64.116 Y101.058 E17.09468
G1 X64.23 Y101.257 E17.10307
G1 X64.405 Y101.404 E17.11143
G1 X64.536 Y101.462 E17.11667
G1 X66.068 Y101.948 E17.17548
G1 X66.295 Y101.978 E17.18385
G1 X66.519 Y101.929 E17.19224
G1 X66.712 Y101.807 E17.2006
G1 X66.806 Y101.701 E17.20578
G1 X67.354 Y100.929 E17.24042
G1 X67.555 Y100.73 E17.25076
G1 X67.798 Y100.562 E17.26157
G1 X68.058 Y100.442 E17.27205
G1 X68.334 Y100.369 E17.28249
G1 X68.627 Y100.345 E17.29325
G1 X68.907 Y100.371 E17.30354
G1 X69.189 Y100.447 E17.31422
G1 X69.439 Y100.564 E17.32432
G1 X69.684 Y100.737 E17.33529
G1 X69.885 Y100.938 E17.34569
G1 X70.051 Y101.177 E17.35634
G1 X70.17 Y101.431 E17.3666
G1 X70.246 Y101.719 E17.3775
G1 X70.271 Y102 E17.38782
G1 X70.246 Y102.281 E17.39814
G1 X70.17 Y102.569 E17.40904
G1 X70.051 Y102.823 E17.4193
G1 X69.885 Y103.062 E17.42995
G1 X69.684 Y103.263 E17.44035
G1 X69.439 Y103.436 E17.45132
G1 X69.189 Y103.553 E17.46142
G1 X68.907 Y103.629 E17.47211
G1 X68.627 Y103.655 E17.48239
G1 X68.334 Y103.631 E17.49315
G1 X68.058 Y103.558 E17.5036
G1 X67.795 Y103.437 E17.51419
G1 X67.556 Y103.271 E17.52483
G1 X67.354 Y103.071 E17.53523
G1 X66.806 Y102.299 E17.56987
G1 X66.643 Y102.138 E17.57825
G1 X66.435 Y102.043 E17.58662
G1 X66.207 Y102.024 E17.59499
G1 X66.068 Y102.052 E17.60018
G1 X64.536 Y102.538 E17.65898
G1 X64.334 Y102.644 E17.66733
G1 X64.179 Y102.813 E17.67572
G1 X64.092 Y103.024 E17.68407
G1 X64.076 Y103.167 E17.68933
G1 X64.076 Y106.712 E17.81903
G1 X64.064 Y106.502 E17.82672
G1 X64.054 Y106.421 E17.82971
G1 X64.006 Y106.162 E17.83935
G1 X64.007 Y106.162 E17.83938
G1 X63.479 Y103.223 E17.94863
G1 X63.46 Y103.147 E17.9515
G1 X62.456 Y99.863 E18.07714
G1 X62.428 Y99.788 E18.08006
G1 X61.058 Y96.702 E18.2036
G1 X61.023 Y96.635 E18.20636
G1 X59.319 Y93.748 E18.32901
G1 X59.276 Y93.684 E18.33183
G1 X57.26 Y91.031 E18.45374
G1 X57.209 Y90.971 E18.45662
G1 X55.941 Y89.66 E18.52335
G0 F6000 X56.98 Y90.1
G1 F1200 X63.636 Y90.102 E18.76687
G1 X63.636 Y100.833 E19.15947
G1 X63.676 Y101.126 E19.17029
G1 X63.792 Y101.398 E19.18111
G1 X63.977 Y101.629 E19.19194
G1 X64.217 Y101.803 E19.20278
G1 X64.403 Y101.882 E19.21018
G1 X64.775 Y102 E19.22446
G1 X64.403 Y102.118 E19.23873
G1 X64.136 Y102.245 E19.24955
G1 X63.912 Y102.439 E19.26039
G1 X63.769 Y102.652 E19.26978
G1 X62.877 Y99.734 E19.38141
G1 X62.83 Y99.61 E19.38627
G1 X61.46 Y96.524 E19.5098
G1 X61.402 Y96.411 E19.51444
G1 X59.698 Y93.524 E19.63709
G1 X59.627 Y93.417 E19.64179
G1 X57.611 Y90.764 E19.7637
G1 X57.526 Y90.665 E19.76847
G1 X56.98 Y90.1 E19.79722
G0 F6000 X57.993 Y90.541
G1 F1200 X63.196 Y90.542 E19.98758
G1 X63.196 Y99.348 E20.30975
G1 X61.863 Y96.345 E20.42996
G1 X61.781 Y96.187 E20.43647
G1 X60.077 Y93.3 E20.55912
G1 X59.977 Y93.151 E20.56569
G1 X57.993 Y90.541 E20.68564
G0 F6000 X58.88 Y90.981
G1 F1200 X62.756 Y90.982 E20.82744
G1 X62.756 Y97.273 E21.05761
G1 X62.265 Y96.167 E21.10188
G1 X62.16 Y95.964 E21.11024
G1 X60.456 Y93.077 E21.23289
G1 X60.327 Y92.885 E21.24135
G1 X58.88 Y90.981 E21.32885
G0 F6000 X59.768 Y91.421
G1 F1200 X62.316 Y91.422 E21.42207
G1 X62.316 Y95.362 E21.56622
G1 X60.835 Y92.853 E21.67281
G1 X60.678 Y92.619 E21.68312
G1 X59.768 Y91.421 E21.73816
G0 F6000 X60.654 Y91.861
G1 F1200 X61.876 Y91.861 E21.78287
G1 X61.876 Y93.751 E21.85202
G1 X61.214 Y92.629 E21.89968
G1 X61.028 Y92.353 E21.91186
G1 X60.654 Y91.861 E21.93447
G1 F2700 E16.93447
G1 F600 Z0.4
G0 F6000 X67.69 Y101.216 Z0.4
G1 F600 Z0.2
G1 F2700 E21.93447
G1 F1200 X67.843 Y101.065 E21.94233
G1 X68.012 Y100.948 E21.94985
G1 X68.206 Y100.858 E21.95768
G1 X68.414 Y100.804 E21.96554
G1 X68.617 Y100.787 E21.97299
G1 X68.833 Y100.807 E21.98093
G1 X69.039 Y100.862 E21.98873
G1 X69.22 Y100.947 E21.99605
G1 X69.4 Y101.075 E22.00413
G1 X69.542 Y101.216 E22.01145
G1 X69.668 Y101.398 E22.01955
G1 X69.755 Y101.583 E22.02703
G1 X69.81 Y101.792 E22.03493
G1 X69.829 Y102 E22.04258
G1 X69.81 Y102.208 E22.05022
G1 X69.755 Y102.417 E22.05812
G1 X69.668 Y102.602 E22.0656
G1 X69.542 Y102.784 E22.0737
G1 X69.4 Y102.925 E22.08102
G1 X69.22 Y103.053 E22.0891
G1 X69.039 Y103.138 E22.09642
G1 X68.833 Y103.193 E22.10422
G1 X68.617 Y103.213 E22.11216
G1 X68.414 Y103.196 E22.11961
G1 X68.206 Y103.142 E22.12747
G1 X68.016 Y103.053 E22.13515
G1 X67.838 Y102.931 E22.14304
G1 X67.691 Y102.784 E22.15065
G1 X67.165 Y102.044 E22.18387
G1 X67.126 Y102.002 E22.18596
G1 X67.165 Y101.956 E22.18817
G1 X67.69 Y101.216 E22.22136
G0 F6000 X68.029 Y101.5
G1 F1200 X68.123 Y101.407 E22.2262
G1 X68.234 Y101.33 E22.23115
G1 X68.358 Y101.273 E22.23614
G1 X68.482 Y101.24 E22.24083
G1 X68.62 Y101.229 E22.2459
G1 X68.752 Y101.241 E22.25075
G1 X68.887 Y101.278 E22.25587
G1 X68.995 Y101.328 E22.26022
G1 X69.116 Y101.413 E22.26563
G1 X69.203 Y101.501 E22.27016
G1 X69.285 Y101.618 E22.27539
G1 X69.339 Y101.734 E22.28007
G1 X69.376 Y101.871 E22.28526
G1 X69.387 Y101.998 E22.28992
G1 X69.376 Y102.129 E22.29473
G1 X69.34 Y102.264 E22.29985
G1 X69.285 Y102.382 E22.30461
G1 X69.203 Y102.499 E22.30984
G1 X69.117 Y102.586 E22.31431
G1 X68.995 Y102.672 E22.31977
G1 X68.887 Y102.722 E22.32413
G1 X68.752 Y102.759 E22.32925
G1 X68.62 Y102.771 E22.3341
G1 X68.482 Y102.76 E22.33916
G1 X68.358 Y102.727 E22.34386
G1 X68.235 Y102.67 E22.34882
G1 X68.12 Y102.591 E22.35392
G1 X68.029 Y102.5 E22.35863
G1 X67.674 Y102 E22.38106
G1 X68.029 Y101.5 E22.4035
G0 F6000 X68.366 Y101.785
G1 F1200 X68.402 Y101.75 E22.40534
G1 X68.455 Y101.713 E22.4077
G1 X68.507 Y101.689 E22.4098
G1 X68.562 Y101.675 E22.41187
G1 X68.616 Y101.67 E22.41386
G1 X68.677 Y101.676 E22.4161
G1 X68.728 Y101.69 E22.41803
G1 X68.776 Y101.712 E22.41997
G1 X68.829 Y101.749 E22.42233
G1 X68.868 Y101.788 E22.42435
G1 X68.904 Y101.841 E22.42669
G1 X68.924 Y101.884 E22.42843
G1 X68.941 Y101.947 E22.43082
G1 X68.946 Y102 E22.43276
G1 X68.941 Y102.053 E22.43471
G1 X68.924 Y102.116 E22.4371
G1 X68.904 Y102.159 E22.43883
G1 X68.868 Y102.212 E22.44118
G1 X68.829 Y102.251 E22.4432
G1 X68.776 Y102.288 E22.44556
G1 X68.728 Y102.31 E22.44749
G1 X68.677 Y102.324 E22.44943
G1 X68.616 Y102.33 E22.45167
G1 X68.562 Y102.325 E22.45365
G1 X68.507 Y102.311 E22.45573
G1 X68.448 Y102.284 E22.4581
G1 X68.405 Y102.254 E22.46002
G1 X68.365 Y102.214 E22.46209
G1 X68.213 Y102 E22.4717
G1 X68.366 Y101.785 E22.48135
G1 F2700 E17.48135
G1 F600 Z0.4
G0 F6000 X64.076 Y113.464 Z0.4
G1 F600 Z0.2
G1 F2700 E22.48135
G1 F1200 X64.076 Y116.833 E22.60461
G1 X64.116 Y117.058 E22.61297
G1 X64.23 Y117.257 E22.62136
G1 X64.405 Y117.404 E22.62972
G1 X64.536 Y117.462 E22.63496
G1 X66.068 Y117.948 E22.69377
G1 X66.295 Y117.978 E22.70214
G1 X66.519 Y117.929 E22.71053
G1 X66.712 Y117.807 E22.71889
G1 X66.806 Y117.701 E22.72407
G1 X67.354 Y116.929 E22.75871
G1 X67.555 Y116.73 E22.76905
G1 X67.798 Y116.562 E22.77986
G1 X68.058 Y116.442 E22.79034
G1 X68.334 Y116.369 E22.80078
G1 X68.627 Y116.345 E22.81154
G1 X68.907 Y116.371 E22.82183
G1 X69.189 Y116.447 E22.83251
G1 X69.439 Y116.564 E22.84261
G1 X69.684 Y116.737 E22.85359
G1 X69.885 Y116.938 E22.86399
G1 X70.051 Y117.177 E22.87463
G1 X70.17 Y117.431 E22.88489
G1 X70.246 Y117.719 E22.89579
G1 X70.271 Y118 E22.90611
G1 X70.246 Y118.281 E22.91643
G1 X70.17 Y118.569 E22.92733
G1 X70.051 Y118.823 E22.93759
G1 X69.885 Y119.062 E22.94824
G1 X69.684 Y119.263 E22.95864
G1 X69.439 Y119.436 E22.96961
G1 X69.189 Y119.553 E22.97971
G1 X68.907 Y119.629 E22.9904
G1 X68.627 Y119.655 E23.00069
G1 X68.334 Y119.631 E23.01144
G1 X68.058 Y119.558 E23.02189
G1 X67.794 Y119.436 E23.03253
