;FLAVOR:Marlin
;TIME:14854
;Filament used: 12.226m
;Layer height: 0.2
;MINX:25.193
;MINY:84.837
;MINZ:0.2
;MAXX:194.793
;MAXY:135.166
;MAXZ:10.2
;Generated with Cura_SteamEngine 4.2.1
M140 S60
M105
M190 S60
M104 S200
M105
M109 S200
M82 ;absolute extrusion mode
M201 X500.00 Y500.00 Z100.00 E5000.00 ;Setup machine max acceleration
M203 X500.00 Y500.00 Z10.00 E50.00 ;Setup machine max feedrate
M204 P500.00 R1000.00 T500.00 ;Setup Print/Retract/Travel acceleration
M205 X8.00 Y8.00 Z0.40 E5.00 ;Setup Jerk
M220 S100 ;Reset Feedrate
M221 S100 ;Reset Flowrate

G28 ;Home

G92 E0 ;Reset Extruder
G1 Z2.0 F3000 ;Move Z Axis up
G1 X10.1 Y20 Z0.28 F5000.0 ;Move to start position
G1 X10.1 Y200.0 Z0.28 F1500.0 E15 ;Draw the first line
G1 X10.4 Y200.0 Z0.28 F5000.0 ;Move to side a little
G1 X10.4 Y20 Z0.28 F1500.0 E30 ;Draw the second line
G92 E0 ;Reset Extruder
G1 Z2.0 F3000 ;Move Z Axis up

G92 E0
G92 E0
G1 F2700 E-5
;LAYER_COUNT:50
;LAYER:0
M107
G0 F6000 X38.717 Y88.013 Z0.2
;TYPE:SKIRT
G1 F2700 E0
G1 F1200 X40.75 Y87.121 E0.08122
G1 X40.79 Y87.104 E0.08281
G1 X41.438 Y86.83 E0.10855
G1 X41.846 Y86.689 E0.12435
G1 X42.375 Y86.545 E0.14441
G1 X42.43 Y86.531 E0.14648
G1 X44.615 Y85.977 E0.22895
G1 X44.656 Y85.966 E0.23051
G1 X45.341 Y85.802 E0.25628
G1 X45.773 Y85.73 E0.2723
G1 X46.347 Y85.673 E0.2934
G1 X46.398 Y85.668 E0.29528
G1 X48.584 Y85.486 E0.37553
G1 X48.633 Y85.482 E0.37733
G1 X49.384 Y85.431 E0.40487
G1 X49.554 Y85.424 E0.41109
G1 X50.229 Y85.414 E0.43579
G1 X157.157 Y85.414 E4.34788
G1 X159.954 Y85.374 E4.45022
G1 X162.669 Y85.259 E4.54964
G1 X165.39 Y85.066 E4.64944
G1 X166.221 Y84.982 E4.68
G1 X166.262 Y84.979 E4.6815
G1 X167.63 Y84.858 E4.73175
G1 X167.883 Y84.845 E4.74102
G1 X168.706 Y84.837 E4.77113
G1 X168.76 Y84.837 E4.7731
G1 X170.859 Y84.852 E4.8499
G1 X170.903 Y84.853 E4.85151
G1 X171.62 Y84.868 E4.87775
G1 X172.047 Y84.905 E4.89343
G1 X172.594 Y84.99 E4.91368
G1 X172.652 Y85 E4.91583
G1 X175.019 Y85.412 E5.00374
G1 X175.063 Y85.42 E5.00537
G1 X175.759 Y85.551 E5.03128
G1 X176.125 Y85.642 E5.04508
G1 X176.39 Y85.725 E5.05524
G1 X176.502 Y85.762 E5.05956
G1 X179.058 Y86.666 E5.15875
G1 X179.096 Y86.68 E5.16023
G1 X179.699 Y86.902 E5.18374
G1 X180.101 Y87.082 E5.19985
G1 X180.882 Y87.498 E5.23223
G1 X180.931 Y87.525 E5.23427
G1 X182.722 Y88.519 E5.30922
G1 X182.76 Y88.54 E5.3108
G1 X183.418 Y88.917 E5.33855
G1 X183.785 Y89.163 E5.35471
G1 X184.365 Y89.611 E5.38153
G1 X184.405 Y89.642 E5.38338
G1 X186.116 Y91.007 E5.46346
G1 X186.152 Y91.036 E5.46515
G1 X186.723 Y91.505 E5.49218
G1 X187.042 Y91.805 E5.5082
G1 X187.48 Y92.278 E5.53179
G1 X187.512 Y92.314 E5.53355
G1 X189.067 Y94.045 E5.61868
G1 X189.103 Y94.086 E5.62068
G1 X189.538 Y94.587 E5.64495
G1 X189.746 Y94.853 E5.65731
G1 X189.911 Y95.089 E5.66784
G1 X189.992 Y95.21 E5.67317
G1 X191.426 Y97.472 E5.77116
G1 X191.451 Y97.512 E5.77288
G1 X191.819 Y98.112 E5.79863
G1 X192.013 Y98.481 E5.81389
G1 X192.246 Y99.002 E5.83477
G1 X192.275 Y99.069 E5.83744
G1 X193.203 Y101.276 E5.92503
G1 X193.221 Y101.32 E5.92677
G1 X193.471 Y101.94 E5.95123
G1 X193.59 Y102.291 E5.96479
G1 X193.696 Y102.677 E5.97943
G1 X193.718 Y102.762 E5.98265
G1 X193.772 Y102.982 E5.99093
G1 X193.779 Y103.013 E5.9921
G1 X194.321 Y105.317 E6.07869
G1 X194.33 Y105.352 E6.08001
G1 X194.478 Y106.015 E6.10487
G1 X194.544 Y106.448 E6.12089
G1 X194.6 Y107.117 E6.14545
G1 X194.604 Y107.177 E6.14765
G1 X194.754 Y109.479 E6.23205
G1 X194.757 Y109.522 E6.23363
G1 X194.793 Y110.221 E6.25924
G1 X194.785 Y110.661 E6.27534
G1 X194.73 Y111.306 E6.29902
G1 X194.725 Y111.361 E6.30104
G1 X194.488 Y113.668 E6.38589
G1 X194.483 Y113.713 E6.38755
G1 X194.402 Y114.406 E6.41308
G1 X194.324 Y114.829 E6.42881
G1 X194.182 Y115.385 E6.44981
G1 X194.167 Y115.44 E6.45189
G1 X193.542 Y117.718 E6.53832
G1 X193.53 Y117.76 E6.53991
G1 X193.33 Y118.452 E6.56627
G1 X193.178 Y118.869 E6.58251
G1 X192.919 Y119.45 E6.60578
G1 X192.898 Y119.496 E6.60763
G1 X191.92 Y121.6 E6.69252
G1 X191.902 Y121.637 E6.69402
G1 X191.595 Y122.276 E6.71996
G1 X191.374 Y122.665 E6.73633
G1 X190.999 Y123.229 E6.76111
G1 X190.972 Y123.269 E6.76287
G1 X189.703 Y125.116 E6.84486
G1 X189.674 Y125.158 E6.84673
G1 X189.245 Y125.762 E6.87383
G1 X188.972 Y126.096 E6.88961
G1 X188.539 Y126.559 E6.91281
G1 X188.504 Y126.596 E6.91467
G1 X186.911 Y128.247 E6.99861
G1 X186.873 Y128.286 E7.0006
G1 X186.361 Y128.799 E7.02712
G1 X186.039 Y129.081 E7.04278
G1 X185.54 Y129.463 E7.06577
G1 X185.497 Y129.495 E7.06773
G1 X183.651 Y130.86 E7.15173
G1 X183.618 Y130.884 E7.15322
G1 X183.022 Y131.313 E7.18008
G1 X182.645 Y131.547 E7.19632
G1 X182.094 Y131.838 E7.21912
G1 X182.048 Y131.862 E7.22101
G1 X179.962 Y132.921 E7.3066
G1 X179.923 Y132.94 E7.30819
G1 X179.312 Y133.24 E7.3331
G1 X178.943 Y133.394 E7.34772
G1 X178.575 Y133.521 E7.36197
G1 X178.486 Y133.55 E7.36539
G1 X176.03 Y134.318 E7.45954
G1 X175.985 Y134.332 E7.46126
G1 X175.314 Y134.531 E7.48687
G1 X174.901 Y134.624 E7.50236
G1 X174.313 Y134.717 E7.52414
G1 X174.25 Y134.727 E7.52647
G1 X171.943 Y135.045 E7.61167
G1 X171.898 Y135.051 E7.61333
G1 X171.162 Y135.142 E7.64047
G1 X170.73 Y135.166 E7.6563
G1 X170.123 Y135.159 E7.67851
G1 X170.062 Y135.158 E7.68074
G1 X167.686 Y135.086 E7.76771
G1 X167.644 Y135.084 E7.76924
G1 X166.98 Y135.055 E7.79356
G1 X166.796 Y135.042 E7.80031
G1 X165.786 Y134.94 E7.83745
G1 X165.74 Y134.935 E7.83914
G1 X164.976 Y134.847 E7.86728
G1 X162.265 Y134.61 E7.96684
G1 X159.521 Y134.45 E8.06741
G1 X156.76 Y134.367 E8.16847
G1 X155.208 Y134.354 E8.22525
G1 X50.252 Y134.354 E12.06518
G1 X49.546 Y134.344 E12.09102
G1 X49.37 Y134.336 E12.09746
G1 X48.661 Y134.287 E12.12346
G1 X48.618 Y134.284 E12.12504
G1 X46.523 Y134.111 E12.20195
G1 X46.48 Y134.107 E12.20353
G1 X45.803 Y134.042 E12.22841
G1 X45.379 Y133.973 E12.24413
G1 X44.749 Y133.826 E12.2678
G1 X44.69 Y133.811 E12.27003
G1 X42.575 Y133.275 E12.34985
G1 X42.528 Y133.263 E12.35163
G1 X41.864 Y133.084 E12.37679
G1 X41.47 Y132.95 E12.39201
G1 X40.939 Y132.73 E12.41304
G1 X40.876 Y132.703 E12.41555
G1 X38.87 Y131.822 E12.49571
G1 X38.832 Y131.805 E12.49723
G1 X38.148 Y131.494 E12.52472
G1 X37.771 Y131.292 E12.54037
G1 X37.297 Y130.995 E12.56083
G1 X37.245 Y130.961 E12.56311
G1 X35.369 Y129.735 E12.6451
G1 X35.334 Y129.712 E12.64663
G1 X34.754 Y129.322 E12.6722
G1 X34.418 Y129.062 E12.68775
G1 X33.976 Y128.671 E12.70934
G1 X33.928 Y128.628 E12.71169
G1 X32.29 Y127.12 E12.79315
G1 X32.256 Y127.088 E12.79486
G1 X31.756 Y126.614 E12.82007
G1 X31.469 Y126.304 E12.83552
G1 X31.102 Y125.851 E12.85685
G1 X31.063 Y125.801 E12.85917
G1 X29.696 Y124.044 E12.94062
G1 X29.671 Y124.013 E12.94207
G1 X29.244 Y123.45 E12.96793
G1 X29.004 Y123.083 E12.98397
G1 X28.734 Y122.603 E13.00412
G1 X28.709 Y122.558 E13.006
G1 X27.623 Y120.553 E13.08943
G1 X27.602 Y120.514 E13.09105
G1 X27.297 Y119.932 E13.11509
G1 X27.124 Y119.54 E13.13076
G1 X26.899 Y118.923 E13.15479
G1 X26.878 Y118.864 E13.15708
G1 X26.192 Y116.863 E13.23447
G1 X26.178 Y116.821 E13.23609
G1 X25.942 Y116.1 E13.26385
G1 X25.837 Y115.689 E13.27937
G1 X25.729 Y115.111 E13.30088
G1 X25.718 Y115.05 E13.30315
G1 X25.349 Y112.839 E13.38516
G1 X25.342 Y112.793 E13.38686
G1 X25.244 Y112.148 E13.41073
G1 X25.208 Y111.733 E13.42597
G1 X25.194 Y111.079 E13.44991
G1 X25.193 Y111.01 E13.45243
G1 X25.193 Y108.791 E13.53361
G1 X25.203 Y108.094 E13.55912
G1 X25.237 Y107.676 E13.57446
G1 X25.32 Y107.106 E13.59554
G1 X25.33 Y107.039 E13.59801
G1 X25.703 Y104.806 E13.68084
G1 X25.71 Y104.765 E13.68236
G1 X25.828 Y104.111 E13.70668
G1 X25.933 Y103.692 E13.72248
G1 X26.119 Y103.117 E13.74459
G1 X26.137 Y103.063 E13.74667
G1 X26.855 Y100.971 E13.8276
G1 X26.868 Y100.934 E13.82903
G1 X27.101 Y100.281 E13.8544
G1 X27.278 Y99.876 E13.87057
G1 X27.593 Y99.271 E13.89552
G1 X27.617 Y99.225 E13.89742
G1 X28.616 Y97.38 E13.97418
G1 X28.638 Y97.34 E13.97585
G1 X28.993 Y96.706 E14.00244
G1 X29.222 Y96.354 E14.0178
G1 X29.577 Y95.878 E14.03952
G1 X29.617 Y95.826 E14.04193
G1 X30.987 Y94.065 E14.12355
G1 X31.015 Y94.029 E14.12522
G1 X31.446 Y93.491 E14.15044
G1 X31.75 Y93.162 E14.16683
G1 X32.296 Y92.647 E14.19429
G1 X32.324 Y92.62 E14.19572
G1 X33.872 Y91.195 E14.27269
G1 X33.905 Y91.165 E14.27433
G1 X34.391 Y90.73 E14.29819
G1 X34.722 Y90.471 E14.31357
G1 X35.193 Y90.149 E14.33444
G1 X35.249 Y90.111 E14.33692
G1 X37.108 Y88.897 E14.41815
G1 X37.145 Y88.873 E14.41976
G1 X37.751 Y88.489 E14.44601
G1 X38.127 Y88.285 E14.46166
G1 X38.663 Y88.038 E14.48325
G1 X38.717 Y88.013 E14.48543
G1 F2700 E9.48543
G1 F600 Z0.4
;MESH:???2.STL
G0 F6000 X38.605 Y100.419 Z0.4
;TYPE:WALL-INNER
G1 F600 Z0.2
G1 F2700 E14.48543
G1 F1200 X38.16 Y100.346 E14.50193
G1 X37.899 Y100.334 E14.51149
G1 X37.638 Y100.346 E14.52104
G1 X37.194 Y100.419 E14.53751
G1 X36.744 Y100.58 E14.55499
G1 X36.327 Y100.811 E14.57243
G1 X35.958 Y101.112 E14.58986
G1 X35.645 Y101.467 E14.60717
G1 X35.396 Y101.872 E14.62457
G1 X35.219 Y102.313 E14.64195
G1 X35.118 Y102.776 E14.65929
G1 X35.098 Y103.252 E14.67672
G1 X35.157 Y103.726 E14.69419
G1 X35.299 Y104.181 E14.71163
G1 X35.512 Y104.604 E14.72896
G1 X35.793 Y104.987 E14.74634
G1 X36.137 Y105.316 E14.76375
G1 X36.532 Y105.584 E14.78122
G1 X36.966 Y105.777 E14.7986
G1 X37.425 Y105.898 E14.81596
G1 X37.899 Y105.939 E14.83337
G1 X38.374 Y105.898 E14.85081
G1 X38.834 Y105.777 E14.86821
G1 X39.266 Y105.584 E14.88553
G1 X39.662 Y105.315 E14.90304
G1 X40.003 Y104.988 E14.92033
G1 X40.287 Y104.606 E14.93774
G1 X40.502 Y104.18 E14.9552
G1 X40.641 Y103.726 E14.97257
G1 X40.701 Y103.252 E14.99005
G1 X40.68 Y102.778 E15.00741
G1 X40.58 Y102.314 E15.02477
G1 X40.402 Y101.871 E15.04224
G1 X40.154 Y101.469 E15.05952
G1 X39.841 Y101.11 E15.07695
G1 X39.469 Y100.811 E15.09441
G1 X39.054 Y100.58 E15.11179
G1 X38.605 Y100.419 E15.12924
G1 F2700 E10.12924
G1 F600 Z0.4
G0 F6000 X44.187 Y116.58 Z0.4
G1 F600 Z0.2
G1 F2700 E15.12924
G1 F1200 X44.373 Y116.704 E15.13742
G1 X45.393 Y117.395 E15.18249
G1 X46.724 Y117.996 E15.23592
G1 X48.136 Y118.365 E15.28932
G1 X49.591 Y118.489 E15.34274
G1 X51.045 Y118.365 E15.39613
G1 X52.457 Y117.996 E15.44953
G1 X53.786 Y117.397 E15.50286
G1 X54.995 Y116.58 E15.55625
G1 X56.051 Y115.569 E15.60973
G1 X56.91 Y114.406 E15.66263
G1 X57.575 Y113.093 E15.71648
G1 X58.002 Y111.697 E15.76989
G1 X58.187 Y110.25 E15.82326
G1 X58.125 Y108.792 E15.87665
G1 X57.817 Y107.365 E15.93006
G1 X57.274 Y106.013 E15.98336
G1 X56.509 Y104.768 E16.03683
G1 X55.543 Y103.673 E16.09025
G1 X54.408 Y102.756 E16.14363
G1 X53.135 Y102.045 E16.19698
G1 X51.758 Y101.558 E16.25042
G1 X50.344 Y101.316 E16.3029
G1 X49.591 Y101.284 E16.33048
G1 X48.838 Y101.316 E16.35805
G1 X47.423 Y101.558 E16.41057
G1 X46.046 Y102.045 E16.46401
G1 X44.773 Y102.756 E16.51735
G1 X43.636 Y103.673 E16.5708
G1 X42.673 Y104.769 E16.62417
G1 X41.909 Y106.011 E16.67752
G1 X41.364 Y107.365 E16.73092
G1 X41.056 Y108.792 E16.78433
G1 X40.994 Y110.25 E16.83772
G1 X41.179 Y111.697 E16.8911
G1 X41.606 Y113.093 E16.94451
G1 X42.27 Y114.405 E16.9983
G1 X43.131 Y115.566 E17.05119
G1 X44.187 Y116.58 E17.10475
G1 F2700 E12.10475
G1 F600 Z0.4
G0 F6000 X48.885 Y120.669 Z0.4
G1 F600 Z0.2
G1 F2700 E17.10475
G1 F1200 X48.435 Y120.83 E17.12223
G1 X48.021 Y121.061 E17.13958
G1 X47.649 Y121.36 E17.15704
G1 X47.336 Y121.719 E17.17447
G1 X47.088 Y122.121 E17.19175
G1 X46.91 Y122.562 E17.20915
G1 X46.809 Y123.028 E17.22659
G1 X46.789 Y123.505 E17.24406
G1 X46.849 Y123.976 E17.26143
G1 X46.988 Y124.43 E17.2788
G1 X47.203 Y124.854 E17.29619
G1 X47.485 Y125.238 E17.31363
G1 X47.83 Y125.567 E17.33107
G1 X48.224 Y125.834 E17.34848
G1 X48.656 Y126.027 E17.36579
G1 X49.116 Y126.148 E17.38319
G1 X49.591 Y126.189 E17.40064
G1 X50.065 Y126.148 E17.41804
G1 X50.524 Y126.027 E17.43541
G1 X50.958 Y125.834 E17.45279
G1 X51.353 Y125.566 E17.47025
G1 X51.697 Y125.237 E17.48767
G1 X51.978 Y124.854 E17.50504
G1 X52.193 Y124.429 E17.52247
G1 X52.332 Y123.975 E17.53984
G1 X52.392 Y123.505 E17.55718
G1 X52.372 Y123.028 E17.57464
G1 X52.271 Y122.564 E17.59202
G1 X52.094 Y122.12 E17.6095
G1 X51.844 Y121.717 E17.62686
G1 X51.532 Y121.362 E17.64415
G1 X51.163 Y121.061 E17.66157
G1 X50.746 Y120.83 E17.67901
G1 X50.296 Y120.669 E17.6965
G1 X49.852 Y120.596 E17.71296
G1 X49.591 Y120.584 E17.72252
G1 X49.329 Y120.596 E17.73211
G1 X48.885 Y120.669 E17.74857
G1 F2700 E12.74857
G1 F600 Z0.4
G0 F6000 X68.491 Y123.234 Z0.4
G1 F600 Z0.2
G1 F2700 E17.74857
G1 F1200 X136.046 Y123.234 E20.22015
G1 X140.146 Y119.134 E20.43229
G1 X136.046 Y115.034 E20.64443
G1 X68.491 Y115.034 E23.116
G1 X68.491 Y123.234 E23.41601
G1 F2700 E18.41601
G1 F600 Z0.4
G0 F6000 X68.491 Y105.234 Z0.4
G1 F600 Z0.2
G1 F2700 E23.41601
G1 F1200 X136.046 Y105.234 E25.88759
G1 X140.146 Y101.134 E26.09972
G1 X136.046 Y97.034 E26.31186
G1 X68.491 Y97.034 E28.78344
G1 X68.491 Y105.234 E29.08344
G1 F2700 E24.08344
G1 F600 Z0.4
G0 F6000 X60.577 Y100.419 Z0.4
G1 F600 Z0.2
G1 F2700 E29.08344
G1 F1200 X60.127 Y100.58 E29.10093
G1 X59.71 Y100.811 E29.11837
G1 X59.341 Y101.112 E29.13579
G1 X59.028 Y101.467 E29.15311
G1 X58.779 Y101.87 E29.17044
G1 X58.601 Y102.314 E29.18794
G1 X58.501 Y102.778 E29.20531
G1 X58.48 Y103.253 E29.2227
G1 X58.541 Y103.728 E29.24022
G1 X58.68 Y104.18 E29.25752
G1 X58.894 Y104.604 E29.2749
G1 X59.178 Y104.988 E29.29237
G1 X59.519 Y105.315 E29.30966
G1 X59.915 Y105.584 E29.32717
G1 X60.349 Y105.777 E29.34455
G1 X60.808 Y105.898 E29.36192
G1 X61.282 Y105.939 E29.37932
G1 X61.756 Y105.898 E29.39673
G1 X62.215 Y105.777 E29.4141
G1 X62.649 Y105.584 E29.43148
G1 X63.045 Y105.315 E29.44899
G1 X63.386 Y104.988 E29.46628
G1 X63.67 Y104.604 E29.48375
G1 X63.884 Y104.18 E29.50113
G1 X64.024 Y103.726 E29.51851
G1 X64.083 Y103.252 E29.53598
G1 X64.063 Y102.776 E29.55341
G1 X63.962 Y102.313 E29.57075
G1 X63.785 Y101.872 E29.58814
G1 X63.536 Y101.467 E29.60553
G1 X63.223 Y101.112 E29.62285
G1 X62.854 Y100.811 E29.64027
G1 X62.437 Y100.58 E29.65771
G1 X61.987 Y100.419 E29.6752
G1 X61.543 Y100.346 E29.69166
G1 X61.282 Y100.334 E29.70122
G1 X61.021 Y100.346 E29.71078
G1 X60.577 Y100.419 E29.72724
G1 F2700 E24.72724
G1 F600 Z0.4
G0 F6000 X148.672 Y111.677 Z0.4
G1 F600 Z0.2
G1 F2700 E29.72724
G1 F1200 X148.986 Y111.975 E29.74308
G1 X149.345 Y112.22 E29.75898
G1 X149.74 Y112.396 E29.7748
G1 X150.158 Y112.506 E29.79061
G1 X150.591 Y112.544 E29.80652
G1 X151.024 Y112.506 E29.82242
G1 X151.441 Y112.396 E29.8382
G1 X151.836 Y112.22 E29.85402
G1 X152.195 Y111.975 E29.86992
G1 X152.509 Y111.677 E29.88576
G1 X152.765 Y111.327 E29.90162
G1 X152.961 Y110.942 E29.91743
G1 X153.088 Y110.526 E29.93334
G1 X153.142 Y110.099 E29.94909
G1 X153.124 Y109.665 E29.96498
G1 X153.032 Y109.239 E29.98092
G1 X152.87 Y108.838 E29.99675
G1 X152.644 Y108.472 E30.01249
G1 X152.359 Y108.147 E30.0283
G1 X152.021 Y107.873 E30.04422
G1 X151.643 Y107.663 E30.06004
G1 X151.236 Y107.518 E30.07585
G1 X150.829 Y107.449 E30.09095
G1 X150.591 Y107.439 E30.09967
G1 X150.353 Y107.449 E30.10838
G1 X149.946 Y107.518 E30.12348
G1 X149.536 Y107.663 E30.13939
G1 X149.163 Y107.873 E30.15505
G1 X148.824 Y108.144 E30.17093
G1 X148.537 Y108.472 E30.18688
G1 X148.311 Y108.838 E30.20262
G1 X148.149 Y109.239 E30.21844
G1 X148.057 Y109.665 E30.23438
G1 X148.039 Y110.099 E30.25028
G1 X148.093 Y110.526 E30.26602
G1 X148.22 Y110.942 E30.28194
G1 X148.416 Y111.327 E30.29774
G1 X148.672 Y111.677 E30.31361
G1 F2700 E25.31361
G1 F600 Z0.4
G0 F6000 X161.254 Y117.326 Z0.4
G1 F600 Z0.2
G1 F2700 E30.31361
G1 F1200 X162.615 Y118.629 E30.38254
G1 X164.176 Y119.684 E30.45147
G1 X165.891 Y120.458 E30.52031
G1 X167.714 Y120.933 E30.58924
G1 X169.591 Y121.094 E30.65816
G1 X171.468 Y120.933 E30.72709
G1 X173.29 Y120.458 E30.79597
G1 X175.005 Y119.684 E30.86481
G1 X176.566 Y118.629 E30.93374
G1 X177.926 Y117.326 E31.00265
G1 X179.046 Y115.811 E31.07158
G1 X179.894 Y114.13 E31.14047
G1 X180.446 Y112.329 E31.20938
G1 X180.685 Y110.46 E31.27832
G1 X180.605 Y108.579 E31.3472
G1 X180.207 Y106.738 E31.41611
G1 X179.505 Y104.99 E31.48503
G1 X178.519 Y103.387 E31.55388
G1 X177.275 Y101.972 E31.62281
G1 X175.808 Y100.789 E31.69176
G1 X174.165 Y99.872 E31.7606
G1 X172.388 Y99.244 E31.82956
G1 X170.556 Y98.93 E31.89756
