;FLAVOR:Marlin
;TIME:14020
;Filament used: 10.5577m
;Layer height: 0.2
;MINX:36.168
;MINY:85.48
;MINZ:0.2
;MAXX:183.87
;MAXY:134.52
;MAXZ:28.2
;Generated with Cura_SteamEngine 4.2.1
M140 S60
M105
M190 S60
M104 S200
M105
M109 S200
M82 ;absolute extrusion mode
M201 X500.00 Y500.00 Z100.00 E5000.00 ;Setup machine max acceleration
M203 X500.00 Y500.00 Z10.00 E50.00 ;Setup machine max feedrate
M204 P500.00 R1000.00 T500.00 ;Setup Print/Retract/Travel acceleration
M205 X8.00 Y8.00 Z0.40 E5.00 ;Setup Jerk
M220 S100 ;Reset Feedrate
M221 S100 ;Reset Flowrate

G28 ;Home

G92 E0 ;Reset Extruder
G1 Z2.0 F3000 ;Move Z Axis up
G1 X10.1 Y20 Z0.28 F5000.0 ;Move to start position
G1 X10.1 Y200.0 Z0.28 F1500.0 E15 ;Draw the first line
G1 X10.4 Y200.0 Z0.28 F5000.0 ;Move to side a little
G1 X10.4 Y20 Z0.28 F1500.0 E30 ;Draw the second line
G92 E0 ;Reset Extruder
G1 Z2.0 F3000 ;Move Z Axis up

G92 E0
G92 E0
G1 F2700 E-5
;LAYER_COUNT:140
;LAYER:0
M107
G0 F6000 X49.327 Y88.262 Z0.2
;TYPE:SKIRT
G1 F2700 E0
G1 F1200 X49.714 Y88.067 E0.01585
G1 X50.6 Y87.692 E0.05105
G1 X50.621 Y87.683 E0.05189
G1 X52.004 Y87.109 E0.10667
G1 X52.042 Y87.093 E0.10818
G1 X52.722 Y86.821 E0.13498
G1 X53.068 Y86.705 E0.14833
G1 X53.291 Y86.644 E0.15679
G1 X53.366 Y86.625 E0.15962
G1 X53.62 Y86.562 E0.16919
G1 X53.649 Y86.555 E0.17028
G1 X56.237 Y85.939 E0.26761
G1 X56.275 Y85.93 E0.26904
G1 X56.874 Y85.795 E0.29151
G1 X57.257 Y85.732 E0.30571
G1 X58.323 Y85.624 E0.34491
G1 X58.386 Y85.619 E0.34722
G1 X59.219 Y85.551 E0.3778
G1 X59.264 Y85.547 E0.37945
G1 X60.034 Y85.495 E0.40769
G1 X60.206 Y85.488 E0.41398
G1 X60.779 Y85.48 E0.43495
G1 X88.745 Y85.48 E1.45812
G1 X89.443 Y85.49 E1.48366
G1 X89.948 Y85.538 E1.50222
G1 X90.486 Y85.68 E1.52258
G1 X90.775 Y85.784 E1.53381
G1 X93.388 Y86.707 E1.6352
G1 X96.015 Y87.55 E1.73614
G1 X98.633 Y88.311 E1.83589
G1 X101.278 Y88.999 E1.93588
G1 X103.993 Y89.624 E2.03781
G1 X106.611 Y90.148 E2.13549
G1 X109.336 Y90.614 E2.23663
G1 X112.061 Y91.001 E2.33733
G1 X114.764 Y91.308 E2.43686
G1 X117.468 Y91.537 E2.53614
G1 X120.225 Y91.693 E2.63717
G1 X124.333 Y91.78 E2.7875
G1 X165.989 Y91.78 E4.31153
G1 X166.687 Y91.79 E4.33707
G1 X167.192 Y91.838 E4.35563
G1 X167.683 Y91.963 E4.37417
G1 X168.149 Y92.165 E4.39275
G1 X168.577 Y92.437 E4.41131
G1 X168.8 Y92.621 E4.42188
G1 X168.956 Y92.762 E4.42958
G1 X169.046 Y92.846 E4.43408
G1 X169.21 Y93.006 E4.44246
G1 X182.478 Y106.274 E5.12896
G1 X182.936 Y106.745 E5.15299
G1 X183.259 Y107.136 E5.17155
G1 X183.518 Y107.572 E5.1901
G1 X183.705 Y108.043 E5.20864
G1 X183.815 Y108.538 E5.22719
G1 X183.844 Y108.861 E5.23906
G1 X183.867 Y109.433 E5.26
G1 X183.87 Y109.562 E5.26472
G1 X183.87 Y110.303 E5.29183
G1 X183.86 Y111.035 E5.31862
G1 X183.813 Y111.54 E5.33717
G1 X183.687 Y112.031 E5.35572
G1 X183.486 Y112.497 E5.37429
G1 X183.214 Y112.925 E5.39284
G1 X183.029 Y113.15 E5.4035
G1 X182.888 Y113.306 E5.41119
G1 X182.801 Y113.399 E5.41585
G1 X182.62 Y113.584 E5.42532
G1 X169.385 Y126.819 E6.11011
G1 X168.901 Y127.29 E6.13482
G1 X168.511 Y127.614 E6.15337
G1 X168.074 Y127.872 E6.17193
G1 X167.603 Y128.059 E6.19047
G1 X167.108 Y128.17 E6.20903
G1 X166.757 Y128.2 E6.22192
G1 X166.19 Y128.218 E6.24268
G1 X166.088 Y128.22 E6.24641
G1 X124.355 Y128.22 E7.77326
G1 X121.558 Y128.26 E7.8756
G1 X118.843 Y128.375 E7.97502
G1 X116.092 Y128.57 E8.07592
G1 X113.397 Y128.837 E8.175
G1 X110.668 Y129.186 E8.27566
G1 X107.974 Y129.61 E8.37544
G1 X105.26 Y130.114 E8.47643
G1 X102.587 Y130.689 E8.57646
G1 X99.973 Y131.33 E8.67493
G1 X97.303 Y132.064 E8.77624
G1 X94.671 Y132.87 E8.87695
G1 X92.081 Y133.744 E8.97696
G1 X90.69 Y134.247 E9.03107
G1 X90.538 Y134.304 E9.03701
G1 X90.05 Y134.444 E9.05559
G1 X89.455 Y134.509 E9.07749
G1 X88.715 Y134.52 E9.10456
G1 X61.402 Y134.52 E10.10384
G1 X60.697 Y134.51 E10.12964
G1 X60.544 Y134.504 E10.13524
G1 X59.963 Y134.468 E10.15653
G1 X59.908 Y134.464 E10.15855
G1 X57.712 Y134.29 E10.23915
G1 X57.666 Y134.286 E10.24084
G1 X57.035 Y134.227 E10.26402
G1 X56.732 Y134.184 E10.27522
G1 X56.522 Y134.144 E10.28304
G1 X56.385 Y134.115 E10.28816
G1 X56.08 Y134.043 E10.29963
G1 X56.053 Y134.036 E10.30065
G1 X53.957 Y133.522 E10.37961
G1 X53.914 Y133.511 E10.38123
G1 X53.283 Y133.347 E10.40508
G1 X52.926 Y133.232 E10.41881
G1 X52.062 Y132.896 E10.45272
G1 X52.01 Y132.875 E10.45477
G1 X50.441 Y132.233 E10.5168
G1 X50.394 Y132.214 E10.51865
G1 X49.739 Y131.934 E10.54471
G1 X49.426 Y131.779 E10.55749
G1 X49.154 Y131.626 E10.56891
G1 X49.059 Y131.57 E10.57294
G1 X47.042 Y130.342 E10.65934
G1 X47.003 Y130.319 E10.661
G1 X46.382 Y129.929 E10.68783
G1 X46.083 Y129.716 E10.70126
G1 X45.898 Y129.568 E10.70992
G1 X45.834 Y129.515 E10.71296
G1 X45.623 Y129.337 E10.72306
G1 X45.602 Y129.32 E10.72405
G1 X44.011 Y127.955 E10.80075
G1 X43.98 Y127.927 E10.80228
G1 X43.544 Y127.543 E10.82353
G1 X43.266 Y127.267 E10.83787
G1 X42.54 Y126.451 E10.87783
G1 X42.501 Y126.406 E10.88
G1 X41.431 Y125.157 E10.94018
G1 X41.4 Y125.121 E10.94191
G1 X40.955 Y124.586 E10.96737
G1 X40.747 Y124.306 E10.98013
G1 X40.629 Y124.128 E10.98795
G1 X40.577 Y124.046 E10.9915
G1 X40.448 Y123.838 E11.00046
G1 X40.432 Y123.813 E11.00154
G1 X39.225 Y121.827 E11.08657
G1 X39.202 Y121.789 E11.08819
G1 X38.904 Y121.283 E11.10968
G1 X38.73 Y120.941 E11.12372
G1 X38.309 Y119.98 E11.1621
G1 X38.284 Y119.923 E11.16438
G1 X37.707 Y118.534 E11.21941
G1 X37.689 Y118.489 E11.22118
G1 X37.427 Y117.83 E11.24713
G1 X37.314 Y117.492 E11.26016
G1 X37.235 Y117.204 E11.27109
G1 X37.21 Y117.107 E11.27476
G1 X36.652 Y114.794 E11.36181
G1 X36.642 Y114.752 E11.36339
G1 X36.48 Y114.039 E11.39014
G1 X36.419 Y113.678 E11.40353
G1 X36.39 Y113.414 E11.41325
G1 X36.381 Y113.313 E11.41696
G1 X36.217 Y111.216 E11.49391
G1 X36.213 Y111.166 E11.49575
G1 X36.17 Y110.477 E11.52101
G1 X36.168 Y110.109 E11.53447
G1 X36.184 Y109.801 E11.54575
G1 X36.19 Y109.71 E11.54909
G1 X36.427 Y106.761 E11.65733
G1 X36.432 Y106.713 E11.6591
G1 X36.499 Y106.01 E11.68493
G1 X36.555 Y105.643 E11.69852
G1 X36.614 Y105.367 E11.70884
G1 X36.634 Y105.281 E11.71207
G1 X37.096 Y103.376 E11.78379
G1 X37.106 Y103.334 E11.78537
G1 X37.259 Y102.738 E11.80788
G1 X37.376 Y102.374 E11.82187
G1 X37.744 Y101.426 E11.85907
G1 X37.767 Y101.369 E11.86132
G1 X38.435 Y99.741 E11.9257
G1 X38.454 Y99.696 E11.92749
G1 X38.74 Y99.028 E11.95408
G1 X38.899 Y98.707 E11.96718
G1 X39.03 Y98.476 E11.9769
G1 X39.082 Y98.387 E11.98067
G1 X40.298 Y96.393 E12.06612
G1 X40.322 Y96.354 E12.06779
G1 X40.696 Y95.76 E12.09347
G1 X40.927 Y95.439 E12.10794
G1 X41.235 Y95.062 E12.12575
G1 X41.283 Y95.004 E12.12851
G1 X42.65 Y93.408 E12.20539
G1 X42.683 Y93.371 E12.20721
G1 X43.109 Y92.889 E12.23074
G1 X43.347 Y92.646 E12.24318
G1 X43.608 Y92.407 E12.25613
G1 X43.692 Y92.334 E12.2602
G1 X45.599 Y90.705 E12.35196
G1 X45.633 Y90.675 E12.35362
G1 X46.145 Y90.25 E12.37797
G1 X46.416 Y90.049 E12.39031
G1 X46.668 Y89.881 E12.40139
G1 X46.773 Y89.814 E12.40595
G1 X48.696 Y88.637 E12.48844
G1 X48.735 Y88.613 E12.49011
G1 X49.327 Y88.262 E12.51529
G1 F2700 E7.51529
G1 F600 Z0.4
G0 F6000 X51.066 Y91.22 Z0.4
G1 F600 Z0.2
G1 F2700 E12.51529
G1 F1200 X51.95 Y90.861 E12.5502
G1 X51.953 Y90.859 E12.55033
G1 X52.464 Y90.642 E12.57064
G1 X53.979 Y90.012 E12.63067
G1 X57.697 Y89.127 E12.7705
G1 X60.227 Y88.92 E12.86337
G1 X89.359 Y88.92 E13.9292
G1 X92.647 Y92.21 E14.09937
G1 X94.308 Y93.872 E14.18534
G1 X94.811 Y94.869 E14.2262
G1 X94.892 Y94.957 E14.23057
G1 X95.266 Y95.187 E14.24664
G1 X95.381 Y95.22 E14.25101
G1 X96.556 Y95.22 E14.294
G1 X97.972 Y99.26 E14.45063
G1 X98.872 Y103.189 E14.5981
G1 X98.936 Y103.471 E14.60868
G1 X99.428 Y107.825 E14.76899
G1 X99.428 Y112.175 E14.92814
G1 X98.938 Y116.514 E15.08789
G1 X97.969 Y120.764 E15.24737
G1 X96.736 Y124.26 E15.383
G1 X96.735 Y124.266 E15.38322
G1 X96.562 Y124.78 E15.40307
G1 X95.377 Y124.78 E15.44642
G1 X95.262 Y124.813 E15.4508
G1 X94.889 Y125.043 E15.46683
G1 X94.807 Y125.131 E15.47123
G1 X94.305 Y126.133 E15.51223
G1 X92.245 Y128.193 E15.61882
G1 X91.633 Y128.803 E15.65043
G1 X90.373 Y130.064 E15.71565
G1 X89.731 Y130.707 E15.74889
G1 X89.359 Y131.08 E15.76817
G1 X60.745 Y131.08 E16.81504
G1 X57.339 Y130.81 E16.94005
G1 X54.111 Y130.019 E17.06164
G1 X51.094 Y128.783 E17.18093
G1 X48.214 Y127.029 E17.3043
G1 X45.757 Y124.92 E17.42276
G1 X43.597 Y122.398 E17.54425
G1 X41.826 Y119.483 E17.66904
G1 X40.621 Y116.58 E17.78403
G1 X39.827 Y113.289 E17.90789
G1 X39.594 Y110.274 E18.01853
G1 X39.911 Y106.354 E18.16242
G1 X40.595 Y103.539 E18.2684
G1 X41.886 Y100.395 E18.39275
G1 X43.596 Y97.594 E18.51282
G1 X45.683 Y95.156 E18.63023
G1 X48.333 Y92.892 E18.75775
G1 X51.066 Y91.22 E18.87497
G0 F6000 X51.266 Y91.613
G1 F1200 X52.115 Y91.268 E18.90849
G1 X52.125 Y91.264 E18.90889
G1 X52.633 Y91.048 E18.92908
G1 X54.114 Y90.433 E18.98775
G1 X57.763 Y89.563 E19.125
G1 X60.251 Y89.36 E19.21633
G1 X89.177 Y89.36 E20.27462
G1 X92.336 Y92.521 E20.43812
G1 X93.947 Y94.133 E20.5215
G1 X94.418 Y95.067 E20.55977
G1 X94.555 Y95.251 E20.56816
G1 X94.661 Y95.332 E20.57304
G1 X95.035 Y95.562 E20.58911
G1 X95.248 Y95.646 E20.59748
G1 X95.381 Y95.66 E20.60238
G1 X96.245 Y95.66 E20.63399
G1 X97.546 Y99.374 E20.77796
G1 X98.443 Y103.285 E20.92477
G1 X98.442 Y103.285 E20.9248
G1 X98.503 Y103.556 E20.93497
G1 X98.988 Y107.848 E21.09299
G1 X98.988 Y112.152 E21.25046
G1 X98.505 Y116.437 E21.40823
G1 X97.545 Y120.643 E21.56606
G1 X96.321 Y124.114 E21.70072
G1 X96.319 Y124.125 E21.70113
G1 X96.318 Y124.125 E21.70117
G1 X96.246 Y124.34 E21.70946
G1 X95.377 Y124.34 E21.74125
G1 X95.152 Y124.38 E21.74962
G1 X95.031 Y124.438 E21.75452
G1 X94.658 Y124.668 E21.77056
G1 X94.487 Y124.82 E21.77893
G1 X94.414 Y124.934 E21.78388
G1 X93.944 Y125.872 E21.82226
G1 X91.934 Y127.882 E21.92626
G1 X91.323 Y128.492 E21.95785
G1 X91.322 Y128.492 E21.95789
G1 X90.062 Y129.753 E22.02311
G1 X89.42 Y130.396 E22.05635
G1 X89.177 Y130.64 E22.06895
G1 X60.768 Y130.64 E23.10832
G1 X57.405 Y130.373 E23.23175
G1 X54.249 Y129.6 E23.35063
G1 X51.295 Y128.39 E23.46742
G1 X48.474 Y126.672 E23.58826
G1 X46.066 Y124.605 E23.70437
G1 X43.956 Y122.141 E23.82305
G1 X42.221 Y119.286 E23.94528
G1 X41.04 Y116.44 E24.05802
G1 X40.264 Y113.221 E24.17916
G1 X40.036 Y110.274 E24.2873
G1 X40.348 Y106.419 E24.4288
G1 X41.014 Y103.678 E24.532
G1 X42.281 Y100.591 E24.65409
G1 X43.951 Y97.855 E24.77136
G1 X45.991 Y95.472 E24.88613
G1 X48.598 Y93.245 E25.01157
G1 X51.266 Y91.613 E25.126
G0 F6000 X51.462 Y92.009
G1 F1200 X52.281 Y91.676 E25.15834
G1 X52.297 Y91.669 E25.15898
G1 X52.802 Y91.454 E25.17906
G1 X52.802 Y91.455 E25.1791
G1 X54.255 Y90.851 E25.23667
G1 X57.836 Y89.998 E25.37135
G1 X60.262 Y89.8 E25.4604
G1 X88.995 Y89.8 E26.51163
G1 X92.025 Y92.832 E26.66846
G1 X93.585 Y94.393 E26.7492
G1 X94.025 Y95.265 E26.78493
G1 X94.192 Y95.509 E26.79575
G1 X94.431 Y95.707 E26.80711
G1 X94.805 Y95.937 E26.82317
G1 X95.075 Y96.057 E26.83398
G1 X95.381 Y96.1 E26.84529
G1 X95.933 Y96.1 E26.86548
G1 X97.122 Y99.494 E26.99705
G1 X98.013 Y103.382 E27.14299
G1 X98.069 Y103.629 E27.15225
G1 X98.548 Y107.871 E27.30844
G1 X98.548 Y112.13 E27.46426
G1 X98.071 Y116.361 E27.62004
G1 X97.122 Y120.518 E27.77604
G1 X95.93 Y123.9 E27.90723
G1 X95.377 Y123.9 E27.92746
G1 X95.084 Y123.94 E27.93828
G1 X94.8 Y124.064 E27.94962
G1 X94.427 Y124.294 E27.96565
G1 X94.198 Y124.482 E27.97649
G1 X94.021 Y124.737 E27.98785
G1 X93.583 Y125.611 E28.02362
G1 X91.624 Y127.57 E28.12498
G1 X91.012 Y128.18 E28.15659
G1 X91.011 Y128.181 E28.15664
G1 X89.751 Y129.442 E28.22186
G1 X89.109 Y130.085 E28.2551
G1 X88.994 Y130.2 E28.26106
G1 X60.79 Y130.2 E29.29293
G1 X57.471 Y129.937 E29.41474
G1 X54.387 Y129.181 E29.53091
G1 X51.491 Y127.995 E29.64541
G1 X48.735 Y126.316 E29.76348
G1 X46.379 Y124.294 E29.87707
G1 X44.311 Y121.879 E29.99339
G1 X42.615 Y119.087 E30.11291
G1 X41.458 Y116.3 E30.22331
G1 X40.701 Y113.158 E30.34155
G1 X40.477 Y110.272 E30.44746
G1 X40.783 Y106.495 E30.5861
G1 X41.435 Y103.811 E30.68715
G1 X42.674 Y100.792 E30.80654
G1 X44.308 Y98.116 E30.92126
G1 X46.307 Y95.781 E31.03372
G1 X48.856 Y93.602 E31.1564
G1 X51.462 Y92.009 E31.26815
G0 F6000 X51.66 Y92.404
G1 F1200 X52.447 Y92.084 E31.29923
G1 X52.469 Y92.074 E31.30012
G1 X52.971 Y91.861 E31.32007
G1 X54.39 Y91.271 E31.37629
G1 X57.903 Y90.434 E31.50842
G1 X60.285 Y90.24 E31.59585
G1 X88.813 Y90.24 E32.63958
G1 X91.714 Y93.143 E32.78974
G1 X93.223 Y94.653 E32.86784
G1 X93.632 Y95.464 E32.90107
G1 X93.824 Y95.756 E32.91385
G1 X94.2 Y96.082 E32.93206
G1 X94.574 Y96.312 E32.94813
G1 X94.892 Y96.46 E32.96096
G1 X95.381 Y96.54 E32.97909
G1 X95.621 Y96.54 E32.98787
G1 X96.698 Y99.612 E33.10697
G1 X97.584 Y103.479 E33.25211
G1 X97.634 Y103.703 E33.26051
G1 X98.108 Y107.894 E33.41482
G1 X98.108 Y112.107 E33.56896
G1 X97.637 Y116.284 E33.72274
G1 X96.698 Y120.397 E33.8771
G1 X95.618 Y123.46 E33.99592
G1 X95.377 Y123.46 E34.00474
G1 X95.029 Y123.5 E34.01755
G1 X94.569 Y123.689 E34.03575
G1 X94.196 Y123.919 E34.05178
G1 X93.92 Y124.136 E34.06463
G1 X93.627 Y124.54 E34.08288
G1 X93.22 Y125.352 E34.11612
G1 X91.314 Y127.258 E34.21473
G1 X90.702 Y127.868 E34.24635
G1 X90.7 Y127.87 E34.24645
G1 X89.44 Y129.131 E34.31167
G1 X88.812 Y129.76 E34.34419
G1 X60.8 Y129.76 E35.36904
G1 X57.547 Y129.502 E35.48843
G1 X54.52 Y128.76 E35.60245
G1 X51.692 Y127.602 E35.71426
G1 X48.995 Y125.959 E35.8298
G1 X46.694 Y123.985 E35.94072
G1 X44.668 Y121.619 E36.05468
G1 X43.005 Y118.882 E36.17185
G1 X41.879 Y116.169 E36.27932
G1 X41.135 Y113.084 E36.39542
G1 X40.919 Y110.279 E36.49835
G1 X41.219 Y106.559 E36.63489
G1 X41.853 Y103.95 E36.73312
G1 X43.069 Y100.988 E36.85027
G1 X44.661 Y98.38 E36.96206
G1 X46.621 Y96.09 E37.07234
G1 X49.113 Y93.961 E37.19225
G1 X51.66 Y92.404 E37.30147
G0 F6000 X51.863 Y92.795
G1 F1200 X52.612 Y92.491 E37.33104
G1 X52.641 Y92.479 E37.33219
G1 X53.14 Y92.267 E37.35203
G1 X54.525 Y91.692 E37.40689
G1 X57.975 Y90.869 E37.53666
G1 X60.296 Y90.68 E37.62185
G1 X88.631 Y90.68 E38.65852
G1 X91.403 Y93.454 E38.802
G1 X92.861 Y94.913 E38.87746
G1 X93.239 Y95.662 E38.90816
G1 X93.453 Y95.997 E38.9227
G1 X93.729 Y96.282 E38.93722
G1 X93.97 Y96.457 E38.94811
G1 X94.344 Y96.687 E38.96418
G1 X94.702 Y96.86 E38.97872
G1 X95.087 Y96.958 E38.99326
G1 X95.306 Y96.974 E39.00129
G1 X96.276 Y99.742 E39.1086
G1 X97.155 Y103.576 E39.25251
G1 X97.154 Y103.576 E39.25255
G1 X97.201 Y103.786 E39.26042
G1 X97.668 Y107.916 E39.41249
G1 X97.668 Y112.075 E39.56465
G1 X97.2 Y116.219 E39.71722
G1 X96.275 Y120.274 E39.86939
G1 X95.304 Y123.027 E39.97619
G1 X94.982 Y123.06 E39.98804
G1 X94.602 Y123.178 E40.0026
G1 X94.338 Y123.315 E40.01348
G1 X93.965 Y123.545 E40.02951
G1 X93.649 Y123.786 E40.04405
G1 X93.388 Y124.086 E40.0586
G1 X93.234 Y124.343 E40.06956
G1 X92.86 Y125.09 E40.10012
G1 X91.003 Y126.947 E40.19621
G1 X90.391 Y127.557 E40.22782
G1 X90.388 Y127.559 E40.22795
G1 X89.128 Y128.82 E40.29317
G1 X88.629 Y129.32 E40.31901
G1 X60.822 Y129.32 E41.33637
G1 X57.614 Y129.065 E41.4541
G1 X54.658 Y128.341 E41.56545
G1 X51.893 Y127.208 E41.67477
G1 X49.255 Y125.602 E41.78777
G1 X47.004 Y123.67 E41.8963
G1 X45.025 Y121.36 E42.00758
G1 X43.402 Y118.688 E42.12196
G1 X42.298 Y116.029 E42.2273
G1 X41.572 Y113.015 E42.34072
G1 X41.36 Y110.281 E42.44105
G1 X41.656 Y106.628 E42.57514
G1 X42.274 Y104.084 E42.67092
G1 X43.461 Y101.193 E42.78526
G1 X45.023 Y98.634 E42.89494
G1 X46.933 Y96.402 E43.00242
G1 X49.371 Y94.319 E43.11974
G1 X51.863 Y92.795 E43.22661
G0 F6000 X52.059 Y93.191
G1 F1200 X52.778 Y92.899 E43.255
G1 X52.813 Y92.884 E43.2564
G1 X53.309 Y92.673 E43.27612
G1 X53.309 Y92.674 E43.27615
G1 X54.665 Y92.11 E43.32989
G1 X58.041 Y91.306 E43.45685
G1 X60.32 Y91.12 E43.54051
G1 X88.448 Y91.12 E44.56961
G1 X91.091 Y93.765 E44.70641
G1 X92.501 Y95.176 E44.77939
G1 X92.846 Y95.86 E44.80742
G1 X93.079 Y96.233 E44.82351
G1 X93.375 Y96.557 E44.83956
G1 X93.739 Y96.831 E44.85623
G1 X94.113 Y97.061 E44.8723
G1 X94.507 Y97.257 E44.8884
G1 X94.93 Y97.378 E44.90449
G1 X94.983 Y97.383 E44.90644
G1 X95.851 Y99.858 E45.0024
G1 X96.725 Y103.672 E45.14555
G1 X96.765 Y103.848 E45.15216
G1 X97.228 Y107.948 E45.30311
G1 X97.228 Y112.053 E45.4533
G1 X96.767 Y116.143 E45.60389
