;FLAVOR:Marlin
;TIME:15016
;Filament used: 12.1526m
;Layer height: 0.2
;MINX:75.84
;MINY:78.34
;MINZ:0.2
;MAXX:144.115
;MAXY:141.66
;MAXZ:66
;Generated with Cura_SteamEngine 4.2.1
M140 S60
M105
M190 S60
M104 S200
M105
M109 S200
M82 ;absolute extrusion mode
M201 X500.00 Y500.00 Z100.00 E5000.00 ;Setup machine max acceleration
M203 X500.00 Y500.00 Z10.00 E50.00 ;Setup machine max feedrate
M204 P500.00 R1000.00 T500.00 ;Setup Print/Retract/Travel acceleration
M205 X8.00 Y8.00 Z0.40 E5.00 ;Setup Jerk
M220 S100 ;Reset Feedrate
M221 S100 ;Reset Flowrate

G28 ;Home

G92 E0 ;Reset Extruder
G1 Z2.0 F3000 ;Move Z Axis up
G1 X10.1 Y20 Z0.28 F5000.0 ;Move to start position
G1 X10.1 Y200.0 Z0.28 F1500.0 E15 ;Draw the first line
G1 X10.4 Y200.0 Z0.28 F5000.0 ;Move to side a little
G1 X10.4 Y20 Z0.28 F1500.0 E30 ;Draw the second line
G92 E0 ;Reset Extruder
G1 Z2.0 F3000 ;Move Z Axis up

G92 E0
G92 E0
G1 F2700 E-5
;LAYER_COUNT:329
;LAYER:0
M107
G0 F6000 X76.837 Y79.508 Z0.2
;TYPE:SKIRT
G1 F2700 E0
G1 F1200 X77.235 Y79.141 E0.01981
G1 X77.682 Y78.838 E0.03956
G1 X78.169 Y78.603 E0.05935
G1 X78.686 Y78.443 E0.07915
G1 X79.406 Y78.35 E0.10571
G1 X79.727 Y78.341 E0.11746
G1 X79.83 Y78.34 E0.12123
G1 X83.827 Y78.34 E0.26746
G1 X84.525 Y78.35 E0.293
G1 X84.783 Y78.363 E0.30245
G1 X87.722 Y78.613 E0.41037
G1 X90.408 Y78.764 E0.50879
G1 X93.168 Y78.841 E0.60981
G1 X95.896 Y78.839 E0.70962
G1 X98.588 Y78.762 E0.80815
G1 X101.32 Y78.606 E0.90826
G1 X103.388 Y78.437 E0.98418
G1 X104.157 Y78.366 E1.01243
G1 X104.429 Y78.351 E1.0224
G1 X104.985 Y78.341 E1.04274
G1 X105.053 Y78.34 E1.04523
G1 X111.917 Y78.344 E1.29636
G1 X111.966 Y78.344 E1.29815
G1 X112.607 Y78.353 E1.3216
G1 X112.716 Y78.356 E1.32559
G1 X113.425 Y78.387 E1.35156
G1 X113.476 Y78.39 E1.35343
G1 X115.224 Y78.491 E1.41749
G1 X115.28 Y78.495 E1.41954
G1 X115.992 Y78.547 E1.44566
G1 X116.3 Y78.582 E1.457
G1 X117.073 Y78.705 E1.48564
G1 X117.134 Y78.716 E1.4879
G1 X118.891 Y79.026 E1.55318
G1 X118.944 Y79.035 E1.55515
G1 X119.607 Y79.162 E1.57984
G1 X119.911 Y79.234 E1.59127
G1 X120.734 Y79.466 E1.62256
G1 X120.791 Y79.483 E1.62473
G1 X122.42 Y79.971 E1.68695
G1 X122.467 Y79.985 E1.68874
G1 X123.161 Y80.203 E1.71536
G1 X123.392 Y80.285 E1.72433
G1 X123.659 Y80.389 E1.73481
G1 X123.78 Y80.438 E1.73958
G1 X125.852 Y81.331 E1.82213
G1 X125.895 Y81.35 E1.82385
G1 X126.54 Y81.638 E1.8497
G1 X126.815 Y81.775 E1.86094
G1 X127.323 Y82.055 E1.88216
G1 X127.386 Y82.09 E1.88479
G1 X129.094 Y83.076 E1.95695
G1 X129.136 Y83.101 E1.95874
G1 X129.739 Y83.46 E1.98441
G1 X129.994 Y83.627 E1.99556
G1 X130.512 Y83.997 E2.01885
G1 X132.146 Y85.217 E2.09346
G1 X132.186 Y85.248 E2.09531
G1 X132.722 Y85.66 E2.12005
G1 X132.964 Y85.863 E2.1316
G1 X133.568 Y86.416 E2.16156
G1 X133.611 Y86.456 E2.16371
G1 X134.841 Y87.619 E2.22564
G1 X134.881 Y87.658 E2.22769
G1 X135.404 Y88.168 E2.25441
G1 X135.615 Y88.391 E2.26565
G1 X136.109 Y88.961 E2.29324
G1 X136.145 Y89.004 E2.29529
G1 X137.317 Y90.399 E2.36195
G1 X137.352 Y90.441 E2.36395
G1 X137.762 Y90.944 E2.3877
G1 X137.951 Y91.197 E2.39925
G1 X138.443 Y91.92 E2.43125
G1 X138.474 Y91.966 E2.43327
G1 X139.432 Y93.421 E2.49701
G1 X139.461 Y93.467 E2.499
G1 X139.802 Y94.002 E2.52221
G1 X139.959 Y94.272 E2.53364
G1 X140.353 Y95.025 E2.56473
G1 X140.382 Y95.082 E2.56707
G1 X141.182 Y96.678 E2.63239
G1 X141.205 Y96.725 E2.6343
G1 X141.496 Y97.327 E2.65876
G1 X141.621 Y97.617 E2.67032
G1 X141.907 Y98.368 E2.69972
G1 X141.927 Y98.422 E2.70183
G1 X142.528 Y100.078 E2.76628
G1 X142.545 Y100.126 E2.76814
G1 X142.775 Y100.788 E2.79378
G1 X142.867 Y101.096 E2.80554
G1 X143.054 Y101.839 E2.83357
G1 X143.067 Y101.892 E2.83557
G1 X143.491 Y103.689 E2.90312
G1 X143.503 Y103.739 E2.905
G1 X143.638 Y104.35 E2.9279
G1 X143.693 Y104.664 E2.93956
G1 X143.8 Y105.479 E2.96963
G1 X143.807 Y105.536 E2.97173
G1 X144.009 Y107.288 E3.03626
G1 X144.015 Y107.34 E3.03817
G1 X144.083 Y108.014 E3.06296
G1 X144.1 Y108.318 E3.0741
G1 X144.113 Y109.068 E3.10154
G1 X144.114 Y109.129 E3.10377
G1 X144.115 Y110.876 E3.16769
G1 X144.115 Y110.925 E3.16948
G1 X144.106 Y111.632 E3.19535
G1 X144.093 Y111.893 E3.20491
G1 X144.062 Y112.26 E3.21838
G1 X144.051 Y112.373 E3.22254
G1 X143.801 Y114.534 E3.30213
G1 X143.793 Y114.593 E3.30431
G1 X143.716 Y115.175 E3.32579
G1 X143.667 Y115.462 E3.33644
G1 X143.403 Y116.694 E3.38254
G1 X143.386 Y116.769 E3.38535
G1 X143.053 Y118.178 E3.43832
G1 X143.039 Y118.233 E3.4404
G1 X142.885 Y118.842 E3.46338
G1 X142.798 Y119.134 E3.47452
G1 X142.474 Y120.077 E3.511
G1 X142.453 Y120.138 E3.51337
G1 X141.895 Y121.674 E3.57315
G1 X141.875 Y121.727 E3.57523
G1 X141.667 Y122.273 E3.5966
G1 X141.549 Y122.549 E3.60759
G1 X141.058 Y123.576 E3.64923
G1 X141.028 Y123.638 E3.65175
G1 X140.349 Y124.992 E3.70717
G1 X140.326 Y125.036 E3.70899
G1 X140.049 Y125.57 E3.731
G1 X139.896 Y125.836 E3.74222
G1 X139.291 Y126.796 E3.78374
G1 X139.253 Y126.857 E3.78637
G1 X138.403 Y128.149 E3.84295
G1 X138.37 Y128.198 E3.84511
G1 X138.043 Y128.678 E3.86636
G1 X137.867 Y128.914 E3.87713
G1 X137.16 Y129.791 E3.91835
G1 X137.115 Y129.846 E3.92095
G1 X136.169 Y130.974 E3.97481
G1 X136.131 Y131.018 E3.97693
G1 X135.833 Y131.362 E3.99358
G1 X135.754 Y131.451 E3.99794
G1 X135.336 Y131.903 E4.02046
G1 X135.16 Y132.081 E4.02962
G1 X133.462 Y133.682 E4.115
G1 X133.422 Y133.719 E4.117
G1 X132.963 Y134.139 E4.13976
G1 X132.721 Y134.342 E4.15132
G1 X132.07 Y134.842 E4.18135
G1 X132.024 Y134.877 E4.18346
G1 X130.655 Y135.894 E4.24586
G1 X130.616 Y135.922 E4.24761
G1 X130.042 Y136.337 E4.27353
G1 X129.778 Y136.511 E4.2851
G1 X129.065 Y136.938 E4.3155
G1 X129.015 Y136.967 E4.31762
G1 X127.519 Y137.831 E4.38082
G1 X127.479 Y137.855 E4.38253
G1 X126.885 Y138.188 E4.40744
G1 X126.597 Y138.333 E4.41924
G1 X125.806 Y138.689 E4.45098
G1 X125.752 Y138.712 E4.45312
G1 X124.236 Y139.365 E4.51351
G1 X124.196 Y139.382 E4.5151
G1 X123.5 Y139.672 E4.54269
G1 X123.195 Y139.784 E4.55458
G1 X122.42 Y140.029 E4.58432
G1 X122.366 Y140.045 E4.58638
G1 X120.651 Y140.558 E4.65187
G1 X120.598 Y140.574 E4.65389
G1 X119.983 Y140.748 E4.67728
G1 X119.683 Y140.819 E4.68856
G1 X118.873 Y140.976 E4.71874
G1 X118.813 Y140.987 E4.72097
G1 X117.107 Y141.288 E4.78435
G1 X117.057 Y141.297 E4.78621
G1 X116.366 Y141.409 E4.81182
G1 X116.049 Y141.446 E4.8235
G1 X115.193 Y141.509 E4.8549
G1 X115.136 Y141.513 E4.85699
G1 X113.412 Y141.613 E4.92017
G1 X113.365 Y141.615 E4.9219
G1 X112.702 Y141.645 E4.94618
G1 X112.589 Y141.649 E4.95031
G1 X111.82 Y141.66 E4.97845
G1 X105.155 Y141.66 E5.2223
G1 X104.457 Y141.65 E5.24784
G1 X104.171 Y141.634 E5.25832
G1 X103.993 Y141.618 E5.26486
G1 X101.213 Y141.381 E5.36693
G1 X98.53 Y141.23 E5.46525
G1 X95.769 Y141.153 E5.5663
G1 X93.042 Y141.153 E5.66607
G1 X90.348 Y141.23 E5.76468
G1 X87.624 Y141.385 E5.8645
G1 X85.511 Y141.558 E5.94207
G1 X84.864 Y141.618 E5.96584
G1 X84.614 Y141.633 E5.975
G1 X84.122 Y141.645 E5.99301
G1 X84.045 Y141.646 E5.99582
G1 X80.226 Y141.658 E6.13555
G1 X80.172 Y141.658 E6.13752
G1 X79.483 Y141.65 E6.16273
G1 X78.944 Y141.604 E6.18252
G1 X78.418 Y141.478 E6.20231
G1 X77.916 Y141.277 E6.2221
G1 X77.449 Y141.004 E6.24189
G1 X77.028 Y140.665 E6.26166
G1 X76.661 Y140.268 E6.28144
G1 X76.356 Y139.821 E6.30124
G1 X76.121 Y139.335 E6.32099
G1 X75.96 Y138.818 E6.3408
G1 X75.87 Y138.184 E6.36423
G1 X75.846 Y137.733 E6.38075
G1 X75.841 Y137.539 E6.38785
G1 X75.84 Y82.698 E8.39428
G1 X75.84 Y82.65 E8.39603
G1 X75.849 Y81.961 E8.42124
G1 X75.896 Y81.423 E8.441
G1 X76.022 Y80.897 E8.46079
G1 X76.224 Y80.395 E8.48059
G1 X76.498 Y79.929 E8.50036
G1 X76.837 Y79.508 E8.52014
G0 F6000 X77.269 Y79.696
G1 F1200 X77.66 Y79.373 E8.5387
G1 X78.097 Y79.115 E8.55726
G1 X78.568 Y78.929 E8.57579
G1 X79.064 Y78.82 E8.59437
G1 X79.419 Y78.79 E8.6074
G1 X79.74 Y78.781 E8.61915
G1 X79.83 Y78.78 E8.62244
G1 X83.821 Y78.78 E8.76846
G1 X84.519 Y78.79 E8.794
G1 X84.745 Y78.802 E8.80228
G1 X87.658 Y79.049 E8.90924
G1 X90.406 Y79.204 E9.00994
G1 X93.156 Y79.281 E9.11059
G1 X95.874 Y79.279 E9.21003
G1 X98.625 Y79.2 E9.31072
G1 X101.381 Y79.043 E9.41171
G1 X103.402 Y78.878 E9.4859
G1 X104.198 Y78.804 E9.51515
G1 X104.437 Y78.791 E9.52391
G1 X104.993 Y78.781 E9.54425
G1 X105.053 Y78.78 E9.54645
G1 X111.917 Y78.784 E9.79757
G1 X111.96 Y78.784 E9.79915
G1 X112.601 Y78.793 E9.8226
G1 X112.697 Y78.796 E9.82611
G1 X113.406 Y78.827 E9.85208
G1 X113.451 Y78.829 E9.85373
G1 X115.199 Y78.93 E9.91779
G1 X115.248 Y78.934 E9.91958
G1 X115.96 Y78.986 E9.9457
G1 X116.231 Y79.017 E9.95568
G1 X117.004 Y79.14 E9.98432
G1 X117.057 Y79.149 E9.98629
G1 X118.814 Y79.459 E10.05156
G1 X118.861 Y79.467 E10.05331
G1 X119.524 Y79.594 E10.078
G1 X119.792 Y79.658 E10.08808
G1 X120.615 Y79.89 E10.11937
G1 X120.665 Y79.904 E10.12127
G1 X122.294 Y80.392 E10.18348
G1 X122.335 Y80.405 E10.18506
G1 X123.029 Y80.623 E10.21167
G1 X123.233 Y80.695 E10.21959
G1 X123.5 Y80.799 E10.23007
G1 X123.605 Y80.842 E10.23422
G1 X125.677 Y81.735 E10.31677
G1 X125.716 Y81.752 E10.31832
G1 X126.361 Y82.04 E10.34417
G1 X126.602 Y82.16 E10.35402
G1 X127.11 Y82.44 E10.37524
G1 X127.166 Y82.471 E10.37758
G1 X128.874 Y83.457 E10.44974
G1 X128.911 Y83.479 E10.45131
G1 X129.514 Y83.838 E10.47699
G1 X129.739 Y83.985 E10.48682
G1 X130.194 Y84.31 E10.50728
G1 X130.248 Y84.35 E10.50973
G1 X131.882 Y85.57 E10.58434
G1 X131.918 Y85.597 E10.58599
G1 X132.454 Y86.009 E10.61072
G1 X132.666 Y86.187 E10.62085
G1 X133.27 Y86.74 E10.65081
G1 X133.308 Y86.775 E10.6527
G1 X134.538 Y87.938 E10.71463
G1 X134.574 Y87.973 E10.71647
G1 X135.097 Y88.483 E10.7432
G1 X135.282 Y88.679 E10.75306
G1 X135.776 Y89.249 E10.78065
G1 X135.808 Y89.287 E10.78247
G1 X136.98 Y90.682 E10.84913
G1 X137.011 Y90.719 E10.8509
G1 X137.421 Y91.222 E10.87464
G1 X137.587 Y91.444 E10.88478
G1 X138.079 Y92.167 E10.91677
G1 X138.106 Y92.208 E10.91857
G1 X139.064 Y93.663 E10.98231
G1 X139.09 Y93.703 E10.98405
G1 X139.431 Y94.238 E11.00726
G1 X139.569 Y94.476 E11.01733
G1 X139.963 Y95.229 E11.04842
G1 X139.989 Y95.279 E11.05048
G1 X140.789 Y96.875 E11.1158
G1 X140.809 Y96.917 E11.1175
G1 X141.1 Y97.519 E11.14196
G1 X141.21 Y97.774 E11.15212
G1 X141.496 Y98.525 E11.18153
G1 X141.514 Y98.572 E11.18337
G1 X142.115 Y100.228 E11.24782
G1 X142.13 Y100.27 E11.24945
G1 X142.36 Y100.932 E11.27509
G1 X142.441 Y101.203 E11.28544
G1 X142.628 Y101.946 E11.31347
G1 X142.639 Y101.993 E11.31524
G1 X143.063 Y103.79 E11.38279
G1 X143.073 Y103.834 E11.38444
G1 X143.208 Y104.445 E11.40733
G1 X143.257 Y104.721 E11.41759
G1 X143.364 Y105.536 E11.44766
G1 X143.37 Y105.586 E11.4495
G1 X143.572 Y107.338 E11.51403
G1 X143.577 Y107.384 E11.51572
G1 X143.645 Y108.058 E11.5405
G1 X143.661 Y108.325 E11.55029
G1 X143.674 Y109.075 E11.57773
G1 X143.674 Y109.129 E11.57971
G1 X143.675 Y110.876 E11.64363
G1 X143.675 Y110.919 E11.6452
G1 X143.666 Y111.626 E11.67107
G1 X143.655 Y111.856 E11.67949
G1 X143.624 Y112.223 E11.69297
G1 X143.614 Y112.322 E11.69661
G1 X143.364 Y114.483 E11.7762
G1 X143.357 Y114.535 E11.77812
G1 X143.28 Y115.117 E11.7996
G1 X143.237 Y115.37 E11.80899
G1 X142.973 Y116.602 E11.85508
G1 X142.958 Y116.668 E11.85756
G1 X142.625 Y118.077 E11.91053
G1 X142.613 Y118.125 E11.91234
G1 X142.459 Y118.734 E11.93532
G1 X142.382 Y118.991 E11.94514
G1 X142.058 Y119.934 E11.98162
G1 X142.039 Y119.987 E11.98368
G1 X141.481 Y121.523 E12.04347
G1 X141.464 Y121.57 E12.0453
G1 X141.256 Y122.116 E12.06667
G1 X141.152 Y122.359 E12.07634
G1 X140.661 Y123.386 E12.11799
G1 X140.634 Y123.44 E12.1202
G1 X139.955 Y124.794 E12.17562
G1 X139.935 Y124.834 E12.17725
G1 X139.658 Y125.368 E12.19926
G1 X139.524 Y125.602 E12.20913
G1 X138.919 Y126.562 E12.25064
G1 X138.885 Y126.615 E12.25295
G1 X138.035 Y127.907 E12.30953
G1 X138.006 Y127.95 E12.31143
G1 X137.679 Y128.43 E12.33267
G1 X137.525 Y128.638 E12.34214
G1 X136.818 Y129.515 E12.38336
G1 X136.778 Y129.563 E12.38564
G1 X135.832 Y130.691 E12.4395
G1 X135.799 Y130.73 E12.44137
G1 X135.501 Y131.074 E12.45802
G1 X135.431 Y131.152 E12.46186
G1 X135.013 Y131.604 E12.48438
G1 X134.858 Y131.761 E12.49246
G1 X133.16 Y133.362 E12.57784
G1 X133.125 Y133.395 E12.5796
G1 X132.666 Y133.815 E12.60236
G1 X132.453 Y133.993 E12.61252
G1 X131.802 Y134.493 E12.64255
G1 X131.761 Y134.524 E12.64443
G1 X130.392 Y135.541 E12.70682
G1 X130.359 Y135.565 E12.70832
G1 X129.785 Y135.98 E12.73423
G1 X129.552 Y136.133 E12.74443
G1 X128.839 Y136.56 E12.77484
G1 X128.795 Y136.586 E12.7767
G1 X127.299 Y137.45 E12.83991
G1 X127.264 Y137.471 E12.8414
G1 X126.67 Y137.804 E12.86632
G1 X126.417 Y137.931 E12.87667
G1 X125.626 Y138.287 E12.90841
G1 X125.578 Y138.308 E12.91033
G1 X124.062 Y138.961 E12.97072
G1 X123.33 Y139.266 E12.99973
G1 X123.063 Y139.364 E13.01014
G1 X122.288 Y139.609 E13.03987
G1 X122.24 Y139.624 E13.04171
G1 X120.525 Y140.137 E13.10721
G1 X120.479 Y140.15 E13.10896
G1 X119.864 Y140.324 E13.13234
G1 X119.6 Y140.387 E13.14227
G1 X118.79 Y140.544 E13.17246
G1 X118.736 Y140.554 E13.17446
G1 X117.03 Y140.855 E13.23784
G1 X116.986 Y140.863 E13.23948
G1 X116.295 Y140.975 E13.26509
G1 X116.016 Y141.007 E13.27537
G1 X115.16 Y141.07 E13.30677
G1 X115.11 Y141.074 E13.3086
G1 X113.386 Y141.174 E13.37178
G1 X113.346 Y141.176 E13.37325
G1 X112.683 Y141.206 E13.39753
G1 X112.583 Y141.209 E13.40119
G1 X111.814 Y141.22 E13.42933
G1 X105.161 Y141.22 E13.67274
G1 X104.463 Y141.21 E13.69828
G1 X104.212 Y141.196 E13.70747
G1 X104.007 Y141.177 E13.71501
G1 X101.276 Y140.944 E13.81529
G1 X98.532 Y140.79 E13.91584
G1 X95.781 Y140.713 E14.01652
G1 X93.064 Y140.713 E14.11593
G1 X90.31 Y140.792 E14.21673
G1 X87.564 Y140.948 E14.31736
G1 X85.507 Y141.116 E14.39286
G1 X84.824 Y141.18 E14.41796
G1 X84.604 Y141.193 E14.42602
G1 X84.112 Y141.205 E14.44403
G1 X84.043 Y141.206 E14.44656
G1 X80.224 Y141.218 E14.58628
G1 X80.177 Y141.218 E14.588
G1 X79.488 Y141.21 E14.61321
G1 X78.983 Y141.164 E14.63176
G1 X78.491 Y141.039 E14.65033
G1 X78.025 Y140.839 E14.66889
G1 X77.596 Y140.568 E14.68745
G1 X77.215 Y140.234 E14.70599
G1 X76.892 Y139.843 E14.72454
G1 X76.633 Y139.407 E14.7431
G1 X76.447 Y138.935 E14.76166
G1 X76.337 Y138.44 E14.78021
G1 X76.31 Y138.161 E14.79046
G1 X76.286 Y137.71 E14.80699
G1 X76.281 Y137.539 E14.81325
G1 X76.28 Y82.698 E16.81967
G1 X76.28 Y82.656 E16.8212
G1 X76.289 Y81.967 E16.84641
G1 X76.336 Y81.462 E16.86497
G1 X76.461 Y80.97 E16.88354
G1 X76.662 Y80.505 E16.90208
G1 X76.933 Y80.076 E16.92064
G1 X77.269 Y79.696 E16.9392
G1 F2700 E11.9392
G1 F600 Z0.4
;MESH:???1.STL
G0 F6000 X99.955 Y88.1 Z0.4
;TYPE:WALL-INNER
G1 F600 Z0.2
G1 F2700 E16.9392
G1 F1200 X104.956 Y83.1 E17.19793
G1 X112.549 Y83.104 E17.47573
G1 X115.623 Y83.283 E17.58838
G1 X118.691 Y83.823 E17.70236
G1 X121.731 Y84.736 E17.81848
G1 X124.563 Y85.957 E17.93132
G1 X127.29 Y87.534 E18.04657
G1 X129.817 Y89.42 E18.16193
G1 X132.066 Y91.546 E18.27516
G1 X134.07 Y93.933 E18.38919
G1 X135.797 Y96.555 E18.50406
G1 X137.207 Y99.368 E18.61918
G1 X138.282 Y102.333 E18.73456
G1 X138.995 Y105.358 E18.84827
G1 X139.354 Y108.477 E18.96314
G1 X139.351 Y111.592 E19.0771
G1 X138.984 Y114.705 E19.19178
G1 X138.26 Y117.739 E19.3059
G1 X137.187 Y120.679 E19.42041
G1 X135.775 Y123.481 E19.5352
G1 X134.069 Y126.07 E19.64864
G1 X132.039 Y128.485 E19.76406
G1 X129.763 Y130.627 E19.87841
G1 X127.281 Y132.472 E19.99156
G1 X124.574 Y134.038 E20.10597
G1 X121.712 Y135.271 E20.21999
G1 X118.693 Y136.174 E20.33528
G1 X115.622 Y136.718 E20.44938
G1 X112.471 Y136.9 E20.56486
G1 X104.956 Y136.9 E20.8398
G1 X100.011 Y131.953 E21.09571
G1 X99.425 Y131.9 E21.11724
G1 X89.045 Y131.9 E21.497
G1 X84.058 Y136.886 E21.75501
G1 X80.82 Y136.897 E21.87347
G1 X80.6 Y136.897 E21.88152
G1 X80.6 Y136.677 E21.88673
G1 X80.6 Y83.1 E23.8469
G1 X84.044 Y83.1 E23.9729
G1 X89.045 Y88.1 E24.23163
G1 X99.955 Y88.1 E24.63079
G1 F2700 E19.63079
G1 F600 Z0.4
G0 F6000 X102.381 Y100.927 Z0.4
G1 F600 Z0.2
G1 F2700 E24.63079
G1 F1200 X101.964 Y100.696 E24.64823
G1 X101.515 Y100.537 E24.66566
G1 X101.068 Y100.461 E24.68224
G1 X100.809 Y100.45 E24.69173
G1 X100.549 Y100.461 E24.70125
G1 X100.102 Y100.537 E24.71784
G1 X99.653 Y100.696 E24.73527
G1 X99.239 Y100.927 E24.75261
G1 X98.869 Y101.225 E24.76999
G1 X98.552 Y101.584 E24.78751
